; Generated by Euclid.
; Estimated print time: 13min 12sec
; Config: {"compact_commands":false,"postamble":"T0\nG91\nG1 E-5 F200\nG1 Z4 F1500\nG90\nG28 Y\nG28 X\nT0\nM104 S0\nM140 S0\n","travel_rate":90,"absolute_extrusion":false,"bed_temp":30,"use_arc_commands":true,"skirt_outset":2,"simplify_resolution":0.01,"working_resolution":0.001,"volumes":{"pressure_test_part_7_pressures_extended_bottom_-_silver_base-1.STL":{"config_patch":{"minimum_infill_length":0.4,"perimeter_insets":2,"alternate_perimeter_direction":1,"brim_perimeters":5,"volume_translation":[42.37100882641971,50.11578067392111,-0.00870006624609232],"retraction_height":0.3,"solid_layers":3,"print_rate_multipliers":{"infill":1.66,"first_layer":0.8,"supports":1.66,"solid_infill":1.66,"base_rate":30,"inner_inset":1.5,"retraction":0.17,"outer_inset":1},"volume_scale":[1,1,1],"extrusion":{"infill_overlap_factor":0.15,"first_layer_width":0.4857901551,"first_layer_multiplier":0.85,"multiplier":0.89,"overlap_factor":0.8,"width":0.35},"min_print_height":0.15,"print_height":0.19,"infill_rotation":0,"retraction_length":0.5,"first_perimeter_insets":3,"infill_density":0.5,"infill_rotation_per_layer":60}},"pressure_test_part_7_pressures_extended_bottom_-_silver_component-7.STL":{"config_patch":{"max_point_deposition_area":2,"minimum_infill_length":0.3,"perimeter_insets":3,"alternate_perimeter_direction":1,"brim_perimeters":0,"volume_translation":[42.37100887298584,50.11578094959259,-0.008699923753738403],"retraction_height":2,"solid_layers":3,"print_rate_multipliers":{"infill":1.1,"first_layer":1,"supports":0.8,"solid_infill":1.1,"base_rate":14,"inner_inset":1,"retraction":1,"outer_inset":1},"volume_scale":[1,1,1],"extrusion":{"infill_overlap_factor":0.35,"first_layer_width":0.25,"first_layer_multiplier":1,"multiplier":1,"overlap_factor":0.35,"width":0.25},"pressure_multipliers":{"infill":1,"first_layer":1,"base_pressure":14,"solid_infill":1,"supports":1.25,"inner_inset":1,"outer_inset":1},"min_print_height":0.15,"print_height":0.19,"infill_rotation":0,"retraction_length":0,"first_perimeter_insets":3,"infill_density":1,"infill_rotation_per_layer":60}},"pressure_test_part_7_pressures_extended_bottom_-_silver_component-6.STL":{"config_patch":{"max_point_deposition_area":2,"minimum_infill_length":0.3,"perimeter_insets":3,"alternate_perimeter_direction":1,"brim_perimeters":0,"volume_translation":[42.37100887298584,50.11578094959259,-0.008699923753738403],"retraction_height":2,"solid_layers":3,"print_rate_multipliers":{"infill":1.1,"first_layer":1,"supports":0.8,"solid_infill":1.1,"base_rate":14,"inner_inset":1,"retraction":1,"outer_inset":1},"volume_scale":[1,1,1],"extrusion":{"infill_overlap_factor":0.35,"first_layer_width":0.25,"first_layer_multiplier":1,"multiplier":1,"overlap_factor":0.35,"width":0.25},"pressure_multipliers":{"infill":1,"first_layer":1,"base_pressure":13,"solid_infill":1,"supports":1.25,"inner_inset":1,"outer_inset":1},"min_print_height":0.15,"print_height":0.19,"infill_rotation":0,"retraction_length":0,"first_perimeter_insets":3,"infill_density":1,"infill_rotation_per_layer":60}},"pressure_test_part_7_pressures_extended_bottom_-_silver_component-9.STL":{"config_patch":{"max_point_deposition_area":2,"minimum_infill_length":0.3,"perimeter_insets":3,"alternate_perimeter_direction":1,"brim_perimeters":0,"volume_translation":[42.37100410461426,50.11578094959259,-0.008699923753738403],"retraction_height":2,"solid_layers":3,"print_rate_multipliers":{"infill":1.1,"first_layer":1,"supports":0.8,"solid_infill":1.1,"base_rate":14,"inner_inset":1,"retraction":1,"outer_inset":1},"volume_scale":[1,1,1],"extrusion":{"infill_overlap_factor":0.35,"first_layer_width":0.25,"first_layer_multiplier":1,"multiplier":1,"overlap_factor":0.35,"width":0.25},"pressure_multipliers":{"infill":1,"first_layer":1,"base_pressure":16,"solid_infill":1,"supports":1.25,"inner_inset":1,"outer_inset":1},"min_print_height":0.15,"print_height":0.19,"infill_rotation":0,"retraction_length":0,"first_perimeter_insets":3,"infill_density":1,"infill_rotation_per_layer":60}},"pressure_test_part_7_pressures_extended_bottom_-_silver_component-5.STL":{"config_patch":{"max_point_deposition_area":2,"minimum_infill_length":0.3,"perimeter_insets":3,"alternate_perimeter_direction":1,"brim_perimeters":0,"volume_translation":[42.37100791931152,50.11578094959259,-0.008699923753738403],"retraction_height":2,"solid_layers":3,"print_rate_multipliers":{"infill":1.1,"first_layer":1,"supports":0.8,"solid_infill":1.1,"base_rate":14,"inner_inset":1,"retraction":1,"outer_inset":1},"volume_scale":[1,1,1],"extrusion":{"infill_overlap_factor":0.35,"first_layer_width":0.25,"first_layer_multiplier":1,"multiplier":1,"overlap_factor":0.35,"width":0.25},"pressure_multipliers":{"infill":1,"first_layer":1,"base_pressure":12,"solid_infill":1,"supports":1.25,"inner_inset":1,"outer_inset":1},"min_print_height":0.15,"print_height":0.19,"infill_rotation":0,"retraction_length":0,"first_perimeter_insets":3,"infill_density":1,"infill_rotation_per_layer":60}},"pressure_test_part_7_pressures_extended_bottom_-_silver_component-8.STL":{"config_patch":{"max_point_deposition_area":2,"minimum_infill_length":0.3,"perimeter_insets":3,"alternate_perimeter_direction":1,"brim_perimeters":0,"volume_translation":[42.371009826660156,50.11578094959259,-0.008699923753738403],"retraction_height":2,"solid_layers":3,"print_rate_multipliers":{"infill":1.1,"first_layer":1,"supports":0.8,"solid_infill":1.1,"base_rate":14,"inner_inset":1,"retraction":1,"outer_inset":1},"volume_scale":[1,1,1],"extrusion":{"infill_overlap_factor":0.35,"first_layer_width":0.25,"first_layer_multiplier":1,"multiplier":1,"overlap_factor":0.35,"width":0.25},"pressure_multipliers":{"infill":1,"first_layer":1,"base_pressure":15,"solid_infill":1,"supports":1.25,"inner_inset":1,"outer_inset":1},"min_print_height":0.15,"print_height":0.19,"infill_rotation":0,"retraction_length":0,"first_perimeter_insets":3,"infill_density":1,"infill_rotation_per_layer":60}},"pressure_test_part_7_pressures_extended_bottom_-_silver_component-10.STL":{"config_patch":{"max_point_deposition_area":2,"minimum_infill_length":0.3,"perimeter_insets":3,"alternate_perimeter_direction":1,"brim_perimeters":0,"volume_translation":[42.371002197265625,50.11578094959259,-0.008699923753738403],"retraction_height":2,"solid_layers":3,"print_rate_multipliers":{"infill":1.1,"first_layer":1,"supports":0.8,"solid_infill":1.1,"base_rate":14,"inner_inset":1,"retraction":1,"outer_inset":1},"volume_scale":[1,1,1],"extrusion":{"infill_overlap_factor":0.35,"first_layer_width":0.25,"first_layer_multiplier":1,"multiplier":1,"overlap_factor":0.35,"width":0.25},"pressure_multipliers":{"infill":1,"first_layer":1,"base_pressure":17,"solid_infill":1,"supports":1.25,"inner_inset":1,"outer_inset":1},"min_print_height":0.15,"print_height":0.19,"infill_rotation":0,"retraction_length":0,"first_perimeter_insets":3,"infill_density":1,"infill_rotation_per_layer":60}},"pressure_test_part_7_pressures_extended_bottom_-_silver_component-1.STL":{"config_patch":{"max_point_deposition_area":2,"minimum_infill_length":0.3,"perimeter_insets":3,"alternate_perimeter_direction":1,"brim_perimeters":0,"volume_translation":[42.37101137638092,50.11578094959259,-0.008699923753738403],"retraction_height":2,"solid_layers":3,"print_rate_multipliers":{"infill":1.1,"first_layer":1,"supports":0.8,"solid_infill":1.1,"base_rate":14,"inner_inset":1,"retraction":1,"outer_inset":1},"volume_scale":[1,1,1],"extrusion":{"infill_overlap_factor":0.35,"first_layer_width":0.25,"first_layer_multiplier":1,"multiplier":1,"overlap_factor":0.35,"width":0.25},"pressure_multipliers":{"infill":1,"first_layer":1,"base_pressure":11,"solid_infill":1,"supports":1.25,"inner_inset":1,"outer_inset":1},"min_print_height":0.15,"print_height":0.19,"infill_rotation":0,"retraction_length":0,"first_perimeter_insets":3,"infill_density":1,"infill_rotation_per_layer":60}}},"comments":true,"version":{"major":1,"patch":0,"minor":0},"build_center":[75,75],"config":"FFFConfig","tools":{"1":{"minimum_infill_length":0.3,"perimeter_insets":3,"inter_material_offsets":{"headroom":0.15,"offset":0.05,"point_deposition_offset":0.05},"component_pad_use_singlepath":false,"extrusion_preamble":"M400\nM42 P2 S255\nG4 S0.11\n","needs_solid_floor":true,"before_pressure_change_cmd":"","point_deposition_ml_per_second":0.00012,"export_e_values":false,"skirt_enabled":false,"minimum_rate_scale_factor":1,"midlayer_wipe_cmd":"T1\nM211 X1 S0\nG90\nG1 X150 Y180 F9000\nG1 X180 Y180 F9000\nG1 X178.5 Y176.2 F9000\nG2 X184.863 Y173.564 I0 J-9\nG3 X184.863 Y160.837 I-6.363 J-6.363\nG2 X184.863 Y173.564  I-6.363 J6.363\nG3 X172.136 Y160.837  I-6.363 J-6.363\nG91\nG1 X-3\nM211 X1 S1\nG90","retraction_ramp_ratio":0.08,"always_retract_between_parts":true,"infill_density":1,"after_first_layer_cmd":"","alternate_perimeter_direction":false,"prefer_more_layers":false,"minimum_retract_distance":1.5,"min_print_height":0.15,"after_pressure_change_cmd":";G4 S0.5","retraction_length":0,"retraction_wipe_distance":4,"activate_cmd":"T1\nM211 X1 S0\nG90\nG1 X150 Y180 F9000\nG1 X180 Y180 F9000\nM400\nM42 P75 S255\nG4 P500\nG1 X178.5 Y176.2 F9000\nG2 X184.863 Y173.564 I0 J-9\nG3 X184.863 Y160.837 I-6.363 J-6.363\nG2 X184.863 Y173.564  I-6.363 J6.363\nG3 X172.136 Y160.837  I-6.363 J-6.363\nG91\nG1 X-3\nG90","max_point_deposition_area":2,"brim_enabled":false,"midlayer_wipe_after_distance":240,"extrusion_postamble":"M400\nM42 P2 S0\n","temp_wait":false,"minimum_stop_extrusion_distance":1.1,"retraction_height":2,"id":1,"dwell_minimum_layer_time":0,"config":"PneumaticTool","print_height":0.19,"first_perimeter_insets":3,"spread_component_pad_point_depositions":false,"infill_rotation_per_layer":60,"join_perimeters_with_holes":false,"deactivate_cmd":"G91\nG1 Z1\nT1\nG90\nM211 X1 S0\nG1 X155 Y157 F9000\nG1 X178.5 Y158.2 F9000\nG2 X184.863 Y173.564 I0 J9\nG3 X184.863 Y160.837 I-6.363 J-6.363\nG91\nG1 Y-5\nG1 X-15\nM400\nM42 P75 S0\nT0\nM211 X1 S1\n","brim_perimeters":0,"solid_layers":3,"minimum_layer_time":1,"print_rate_multipliers":{"infill":1.1,"first_layer":1,"supports":0.8,"solid_infill":1.1,"config":"RateMultiplierConfig","base_rate":14,"inner_inset":1,"retraction":1,"outer_inset":1},"extrusion":{"absolute":false,"infill_overlap_factor":0.35,"config":"PneumaticExtrusionConfig","first_layer_width":0.25,"first_layer_multiplier":1,"multiplier":1,"overlap_factor":0.35,"width":0.25},"pressure_multipliers":{"infill":1,"first_layer":1,"base_pressure":14,"solid_infill":1,"config":"PressureMultiplierConfig","inner_inset":1,"supports":1.25,"purge":1,"outer_inset":1},"fan_enabled_under_layer_time":0,"max_volumetric_flow":50,"infill_style":"rectilinear","path_order":["singlepaths","perimeters","infill"],"nozzle_length":4,"after_layer_cmd":"","infill_rotation":0,"point_deposition_postamble":"","dynamic_slice_height":1,"use_singlepath":true},"0":{"minimum_infill_length":0.4,"perimeter_insets":2,"extrusion_preamble":"","needs_solid_floor":false,"export_e_values":true,"skirt_enabled":1,"minimum_rate_scale_factor":0.2,"retraction_ramp_ratio":0,"always_retract_between_parts":false,"infill_density":0.5,"first_layer_height_override":0.3,"after_first_layer_cmd":"M400\nM106 S255","alternate_perimeter_direction":true,"prefer_more_layers":true,"minimum_retract_distance":1.5,"min_print_height":0.15,"retraction_length":0.5,"retraction_wipe_distance":0,"activate_cmd":"T0; switch to tool zero coordinate system\nG91 ; relative coordinates\nG1 Z1 F2000 ; move Z1 at 2000 mm/min\nG90 ; absolute coordinates\nG1 X57 Y187.7 F9000\nG1 X-37.7 F9000\n;begin wiping\nG91\nG1 E7 F150\nG1 E-0.5 F250\nG90\nG4 S1\nG1 Y165 F6000\nG1 X-36 F6000\nG1 Y180 F6000\nG1 X-34 F6000\nG1 Y165 F6000\n;end wiping\nG91\nG1 Z-1 F2000\nG90\n\n","brim_enabled":1,"minimum_stop_extrusion_distance":0,"temp_wait":true,"extrusion_postamble":"","retraction_height":0.3,"id":0,"dwell_minimum_layer_time":0,"config":"FFFTool","plugins":[{"extrusion_multiplier":0.89,"offset_x":-0.2,"perimeter_insets":2,"first_layer_extrusion_multiplier":0.85,"enabled":true,"part_index":1,"type":"wiping-tower","offset_y":3}],"print_height":0.19,"first_perimeter_insets":3,"infill_rotation_per_layer":60,"first_layer_nozzle_temp":225,"join_perimeters_with_holes":false,"deactivate_cmd":"G91\nG1 E-1.5 F300\nG90\n","nozzle_temp":200,"brim_perimeters":5,"solid_layers":3,"minimum_layer_time":3,"print_rate_multipliers":{"infill":1.66,"first_layer":0.8,"supports":1.66,"solid_infill":1.66,"config":"RateMultiplierConfig","base_rate":30,"inner_inset":1.5,"retraction":0.17,"outer_inset":1},"extrusion":{"absolute":false,"infill_overlap_factor":0.15,"config":"VolumetricExtrusionConfig","first_layer_width":0.4857901551,"first_layer_multiplier":0.85,"multiplier":0.89,"overlap_factor":0.8,"width":0.35},"fan_enabled_under_layer_time":1,"max_volumetric_flow":50,"path_order":["perimeters","singlepaths","infill"],"after_layer_cmd":"M106 S255","infill_rotation":0,"dynamic_slice_height":1,"filament_diameter":1.72,"use_singlepath":true}},"auto_alignment":false,"subtract_materials":true,"pause_cmd":"G91\nG1 Z5 F2000\nG90\nG1 X122 Y188 F6000\nG1 E-4.8 F200\nM0","translate_to_build_center":false,"output_style":"gcode","preamble":"G90\nT0\nM106 S0\nM125 S40\nG28\nG29\nG1 X57 Y188 F9000\nG1 X-38 F9000\nG91\nG1 Z1 F2000\n;begin wiping\nG1 E11 F150\nG1 E-0.5 F250\nG90\nG4 S1\nG1 Y165 F6000\nG1 X-36 F6000\nG1 Y180 F6000\nG1 X-34 F6000\nG1 Y165 F6000\nG91\n;end wiping\nG1 Z-1 F2000\nG1 E0.5 F250\nG90\nG92 E0\n\n","export_digits":3,"build_volume":{"y_min":0,"x_max":150,"y_max":150,"z_min":0,"x_min":0,"z_max":105}}
G90
M83
; set bed temperature
M140 S30.0
T0
M109 S225.0
T1
M109 S0.0
T0
; check bed temperature
M190 S30.0
; preamble
M106 S0
M125 S40
G28
G29
G1 X57.0 Y188.0 F9000.0
G1 X-38.0 F9000.0
G91
G1 Z1.0 F2000.0
; begin wiping
G1 E11.0 F150.0
G1 E-0.5 F250.0
G90
G4 P1000.0
G1 Y165.0 F6000.0
G1 X-36.0 F6000.0
G1 Y180.0 F6000.0
G1 X-34.0 F6000.0
G1 Y165.0 F6000.0
G91
; end wiping
G1 Z-1.0 F2000.0
G1 E0.5 F250.0
G90
G92 E0
M400
; Layer number 1
; skirt
; retract
G0 E-0.5 F306.0
G0 X25.379 Y106.331 Z0.19 F5400.0
; unretract
G0 E0.5 F306.0
G1 X25.003 Y105.903 E0.018 F1440.0
G1 X24.715 Y105.472 E0.017 F1440.0
G1 X10.715 Y81.223 E0.907 F1440.0
G3 X10.193 Y79.609 I4.013 J-2.189 E0.055 F1440.0
G1 X10.175 Y79.04 E0.018 F1440.0
G3 X10.593 Y77.395 I4.564 J0.284 E0.055 F1440.0
G3 X12.616 Y75.473 I3.755 J1.926 E0.092 F1440.0
G3 X14.228 Y75.139 I1.721 J4.249 E0.054 F1440.0
G1 X42.228 Y75.139 E0.907 F1440.0
G3 X43.887 Y75.494 I-0.105 J4.546 E0.055 F1440.0
G3 X45.256 Y76.496 I-1.968 J4.125 E0.055 F1440.0
G1 X45.604 Y76.947 E0.018 F1440.0
G3 X46.228 Y78.524 I-3.857 J2.438 E0.055 F1440.0
G1 X46.283 Y79.091 E0.018 F1440.0
G3 X45.741 Y81.223 I-4.099 J0.093 E0.072 F1440.0
G1 X31.741 Y105.472 E0.907 F1440.0
G3 X30.604 Y106.731 I-3.891 J-2.371 E0.055 F1440.0
G1 X30.12 Y107.032 E0.018 F1440.0
G3 X28.487 Y107.492 I-2.033 J-4.09 E0.055 F1440.0
G3 X26.809 Y107.244 I-0.182 J-4.569 E0.055 F1440.0
G3 X25.379 Y106.331 I1.709 J-4.253 E0.055 F1440.0
; retract
G0 E-0.5 F306.0
G0 X40.769 Y73.979 Z0.19 F5400.0
; unretract
G0 E0.5 F306.0
G3 X39.4 Y72.977 I1.968 J-4.125 E0.055 F1440.0
G1 X39.052 Y72.526 E0.018 F1440.0
G3 X38.428 Y70.949 I3.857 J-2.438 E0.055 F1440.0
G1 X38.372 Y70.278 E0.022 F1440.0
G1 X38.372 Y50.294 E0.647 F1440.0
G3 X38.727 Y48.635 I4.546 J0.105 E0.055 F1440.0
G3 X39.729 Y47.266 I4.125 J1.968 E0.055 F1440.0
G1 X40.18 Y46.918 E0.018 F1440.0
G3 X41.757 Y46.294 I2.438 J3.857 E0.055 F1440.0
G1 X42.428 Y46.238 E0.022 F1440.0
G1 X128.941 Y46.238 E2.802 F1440.0
G3 X130.6 Y46.593 I-0.105 J4.546 E0.055 F1440.0
G3 X131.969 Y47.595 I-1.968 J4.125 E0.055 F1440.0
G1 X132.317 Y48.046 E0.018 F1440.0
G3 X132.941 Y49.623 I-3.857 J2.438 E0.055 F1440.0
G1 X132.997 Y50.294 E0.022 F1440.0
G1 X132.997 Y70.278 E0.647 F1440.0
G3 X132.642 Y71.937 I-4.546 J-0.105 E0.055 F1440.0
G3 X131.64 Y73.306 I-4.125 J-1.968 E0.055 F1440.0
G1 X131.189 Y73.654 E0.018 F1440.0
