; generated by PrusaSlicer 2.2.0-rc5+win64 on 2020-03-28 at 23:10:40 UTC

; 

; external perimeters extrusion width = 0.40mm
; perimeters extrusion width = 0.40mm
; infill extrusion width = 0.40mm
; solid infill extrusion width = 0.40mm
; top infill extrusion width = 0.40mm
; support material extrusion width = 0.40mm
; first layer extrusion width = 0.40mm

M201 X500 Y500 Z100 E5000 ; sets maximum accelerations, mm/sec^2
M203 X500 Y500 Z10 E60 ; sets maximum feedrates, mm/sec
M204 P500 R1000 T500 ; sets acceleration (P, T) and retract acceleration (R), mm/sec^2
M205 X8.00 Y8.00 Z0.40 E5.00 ; sets the jerk limits, mm/sec
M205 S0 T0 ; sets the minimum extruding and travel feed rate, mm/sec
M107
G90 ; use absolute coordinates
M83 ; extruder relative mode
M104 S230 ; set extruder temp
M140 S30 ; set bed temp
M190 S30 ; wait for bed temp
M109 S230 ; wait for extruder temp
G28 ; home all
G1 Z2 F240
G1 X2 Y10 F3000
G1 Z0.28 F240
G92 E0.0
G1 Y190 E15.0 F1500.0 ; intro line
G1 X2.3 F5000
G1 Y10 E30 F1200.0 ; intro line
G92 E0.0
G21 ; set units to millimeters
G90 ; use absolute coordinates
M83 ; use relative distances for extrusion
; Filament gcode
;BEFORE_LAYER_CHANGE
;0.2


G1 E-5.00000 F3600.00000
G1 Z3.000 F3000.000
;AFTER_LAYER_CHANGE
;0.2
G1 X87.300 Y86.166
G1 Z0.200
G1 E5.00000 F2400.00000
G1 X87.257 Y87.128 E0.02690
G1 X86.775 Y88.638 E0.04422
G1 X85.882 Y90.085 E0.04747
G1 X70.260 Y105.495 E0.61242
G1 X69.155 Y105.989 E0.03378
G1 X67.958 Y106.286 E0.03444
G1 X66.046 Y106.304 E0.05334
G1 X65.358 Y106.140 E0.01975
G1 X64.818 Y106.376 E0.01646
G1 X63.259 Y106.703 E0.04443
G1 X61.611 Y106.654 E0.04603
G1 X60.374 Y106.349 E0.03556
G1 X59.854 Y106.096 E0.01614
G1 X59.684 Y106.162 E0.00509
G1 X58.335 Y106.430 E0.03837
G1 X56.635 Y106.391 E0.04746
G1 X55.257 Y106.030 E0.03976
G1 X54.005 Y105.421 E0.03884
G1 X49.075 Y100.684 E0.19081
G1 X48.877 Y100.449 E0.00857
G1 X48.562 Y100.170 E0.01175
G1 X46.551 Y98.140 E0.07975
G1 X43.512 Y95.120 E0.11958
G1 X43.236 Y94.808 E0.01164
G1 X43.004 Y94.613 E0.00847
G1 X41.999 Y93.588 E0.04004
G1 X39.168 Y90.776 E0.11137
G1 X38.137 Y89.235 E0.05174
G1 X37.507 Y87.097 E0.06221
G1 X37.540 Y85.215 E0.05254
G1 X37.933 Y83.865 E0.03924
G1 X37.625 Y82.581 E0.03686
G1 X37.590 Y80.994 E0.04431
G1 X37.942 Y79.397 E0.04565
G1 X38.153 Y78.926 E0.01439
G1 X37.937 Y78.002 E0.02648
G1 X38.018 Y75.964 E0.05691
G1 X38.387 Y74.739 E0.03573
G1 X38.955 Y73.605 E0.03539
G1 X54.041 Y58.335 E0.59908
G1 X55.431 Y57.407 E0.04665
G1 X57.523 Y56.793 E0.06086
G1 X59.180 Y56.794 E0.04624
G1 X59.913 Y56.974 E0.02108
G1 X60.490 Y56.720 E0.01758
G1 X62.034 Y56.403 E0.04399
G1 X63.815 Y56.477 E0.04977
G1 X65.127 Y56.846 E0.03803
G1 X65.443 Y57.001 E0.00984
G1 X65.601 Y56.941 E0.00470
G1 X66.870 Y56.683 E0.03616
G1 X68.537 Y56.701 E0.04651
G1 X70.373 Y57.219 E0.05324
G1 X71.800 Y58.080 E0.04651
G1 X72.600 Y58.853 E0.03106
G1 X73.137 Y58.067 E0.02659
G1 X73.798 Y57.233 E0.02968
G1 X74.793 Y56.146 E0.04115
G1 X75.874 Y55.150 E0.04102
G1 X76.717 Y54.477 E0.03010
G1 X77.939 Y53.641 E0.04133
G1 X79.239 Y52.905 E0.04169
G1 X80.326 Y52.395 E0.03350
G1 X81.693 Y51.874 E0.04083
G1 X83.200 Y51.445 E0.04373
G1 X84.627 Y51.169 E0.04056
G1 X85.664 Y51.043 E0.02916
G1 X87.419 Y50.970 E0.04903
G1 X88.696 Y51.029 E0.03567
G1 X89.784 Y51.152 E0.03057
G1 X90.701 Y51.310 E0.02597
G1 X92.126 Y51.655 E0.04092
G1 X93.060 Y51.953 E0.02736
G1 X94.500 Y52.527 E0.04328
G1 X95.798 Y53.178 E0.04053
G1 X97.037 Y53.935 E0.04051
G1 X97.820 Y54.487 E0.02675
G1 X98.570 Y55.082 E0.02670
G1 X99.236 Y55.671 E0.02483
G1 X100.252 Y56.692 E0.04019
G1 X100.846 Y57.376 E0.02528
G1 X101.433 Y58.131 E0.02670
G1 X102.253 Y59.345 E0.04089
G1 X102.966 Y60.618 E0.04072
G1 X103.599 Y62.019 E0.04291
G1 X103.933 Y62.914 E0.02668
G1 X104.247 Y63.947 E0.03012
G1 X104.538 Y65.186 E0.03553
G1 X104.723 Y66.333 E0.03243
G1 X104.839 Y67.584 E0.03505
G1 X104.867 Y68.494 E0.02544
G1 X104.850 Y69.369 E0.02441
G1 X104.725 Y70.805 E0.04023
G1 X104.576 Y71.769 E0.02723
G1 X104.180 Y73.452 E0.04824
G1 X103.886 Y74.367 E0.02684
G1 X103.349 Y75.730 E0.04088
G1 X102.929 Y76.604 E0.02706
G1 X102.189 Y77.911 E0.04191
G1 X101.401 Y79.066 E0.03903
G1 X100.690 Y79.960 E0.03189
G1 X99.665 Y81.071 E0.04217
G1 X98.551 Y82.085 E0.04206
G1 X97.380 Y82.982 E0.04117
G1 X96.472 Y83.580 E0.03035
G1 X95.066 Y84.358 E0.04484
G1 X93.627 Y84.991 E0.04386
G1 X92.233 Y85.465 E0.04111
G1 X91.130 Y85.751 E0.03179
G1 X89.666 Y86.017 E0.04154
G1 X88.149 Y86.159 E0.04251
G1 X87.360 Y86.165 E0.02202
G1 X86.955 Y85.811 F3000.000
G1 F2400.000
G1 X86.909 Y87.044 E0.03444
G1 X86.441 Y88.508 E0.04291
G1 X85.616 Y89.846 E0.04388
G1 X70.085 Y105.182 E0.60917
G1 X69.024 Y105.657 E0.03243
G1 X67.893 Y105.934 E0.03251
G1 X66.067 Y105.947 E0.05096
G1 X65.325 Y105.763 E0.02134
G1 X64.724 Y106.031 E0.01836
G1 X63.247 Y106.345 E0.04213
G1 X61.678 Y106.303 E0.04383
G1 X60.479 Y106.007 E0.03445
G1 X59.865 Y105.702 E0.01915
G1 X59.593 Y105.816 E0.00822
G1 X58.323 Y106.072 E0.03615
G1 X56.665 Y106.034 E0.04630
G1 X55.366 Y105.689 E0.03751
G1 X54.188 Y105.112 E0.03661
G1 X49.330 Y100.434 E0.18822
G1 X49.134 Y100.200 E0.00853
G1 X48.812 Y99.915 E0.01200
G1 X46.804 Y97.888 E0.07963
G1 X43.768 Y94.871 E0.11946
G1 X43.485 Y94.551 E0.01191
G1 X43.252 Y94.356 E0.00848
G1 X42.253 Y93.337 E0.03985
G1 X39.432 Y90.535 E0.11096
G1 X38.471 Y89.107 E0.04804
G1 X37.864 Y87.076 E0.05916
G1 X37.897 Y85.246 E0.05107
G1 X38.303 Y83.875 E0.03992
G1 X37.982 Y82.554 E0.03795
G1 X37.948 Y81.008 E0.04315
G1 X38.286 Y79.494 E0.04331
G1 X38.529 Y78.962 E0.01631
G1 X38.294 Y77.990 E0.02792
G1 X38.367 Y76.044 E0.05433
G1 X38.713 Y74.884 E0.03378
G1 X39.262 Y73.790 E0.03416
G1 X54.282 Y58.599 E0.59625
G1 X55.558 Y57.742 E0.04289
G1 X57.599 Y57.143 E0.05935
G1 X59.155 Y57.150 E0.04345
G1 X59.946 Y57.351 E0.02277
G1 X60.582 Y57.066 E0.01947
G1 X62.042 Y56.761 E0.04162
G1 X63.739 Y56.826 E0.04739
G1 X65.013 Y57.185 E0.03692
G1 X65.431 Y57.396 E0.01308
G1 X65.693 Y57.287 E0.00793
G1 X66.886 Y57.040 E0.03400
G1 X68.509 Y57.058 E0.04531
G1 X70.209 Y57.537 E0.04928
G1 X71.597 Y58.375 E0.04525
G1 X72.654 Y59.407 E0.04123
G1 X73.421 Y58.283 E0.03798
G1 X74.065 Y57.469 E0.02897
G1 X75.041 Y56.403 E0.04033
G1 X76.112 Y55.417 E0.04063
G1 X76.924 Y54.768 E0.02902
G1 X78.135 Y53.940 E0.04094
G1 X79.409 Y53.219 E0.04086
G1 X80.459 Y52.726 E0.03238
G1 X81.813 Y52.211 E0.04042
G1 X83.275 Y51.794 E0.04244
G1 X84.688 Y51.521 E0.04017
G1 X85.700 Y51.398 E0.02844
G1 X87.410 Y51.327 E0.04778
G1 X88.673 Y51.386 E0.03529
G1 X89.728 Y51.504 E0.02964
G1 X90.623 Y51.659 E0.02534
G1 X92.024 Y51.997 E0.04021
G1 X92.933 Y52.288 E0.02666
G1 X94.347 Y52.850 E0.04246
G1 X95.631 Y53.494 E0.04011
G1 X96.846 Y54.236 E0.03972
G1 X97.610 Y54.776 E0.02612
G1 X98.337 Y55.353 E0.02589
G1 X98.987 Y55.927 E0.02421
G1 X99.986 Y56.931 E0.03952
G1 X100.567 Y57.599 E0.02471
G1 X101.141 Y58.336 E0.02607
G1 X101.945 Y59.526 E0.04009
G1 X102.651 Y60.785 E0.04029
G1 X103.271 Y62.160 E0.04209
G1 X103.596 Y63.034 E0.02602
G1 X103.901 Y64.034 E0.02918
G1 X104.189 Y65.262 E0.03519
G1 X104.368 Y66.372 E0.03139
G1 X104.483 Y67.611 E0.03472
G1 X104.510 Y68.501 E0.02485
G1 X104.493 Y69.356 E0.02386
G1 X104.370 Y70.768 E0.03956
G1 X104.224 Y71.708 E0.02654
G1 X103.838 Y73.349 E0.04707
G1 X103.552 Y74.242 E0.02616
G1 X103.024 Y75.582 E0.04018
G1 X102.615 Y76.433 E0.02637
G1 X101.882 Y77.728 E0.04153
G1 X101.110 Y78.859 E0.03822
G1 X100.415 Y79.733 E0.03117
G1 X99.419 Y80.812 E0.04097
G1 X98.328 Y81.807 E0.04120
G1 X97.168 Y82.695 E0.04078
G1 X96.293 Y83.271 E0.02924
G1 X94.914 Y84.034 E0.04397
G1 X93.490 Y84.661 E0.04342
G1 X92.136 Y85.121 E0.03991
G1 X91.060 Y85.400 E0.03105
G1 X89.609 Y85.664 E0.04114
G1 X88.124 Y85.803 E0.04164
G1 X87.015 Y85.810 E0.03096
G1 X86.607 Y85.455 F3000.000
G1 F2400.000
G1 X86.561 Y86.959 E0.04199
G1 X86.108 Y88.379 E0.04159
G1 X85.350 Y89.607 E0.04029
G1 X69.910 Y104.869 E0.60592
G1 X68.894 Y105.324 E0.03107
G1 X67.830 Y105.582 E0.03056
G1 X66.089 Y105.590 E0.04857
G1 X65.292 Y105.386 E0.02297
G1 X64.629 Y105.686 E0.02031
G1 X63.234 Y105.988 E0.03982
G1 X61.744 Y105.952 E0.04161
G1 X60.585 Y105.665 E0.03332
G1 X59.874 Y105.306 E0.02222
G1 X59.502 Y105.470 E0.01136
G1 X58.272 Y105.718 E0.03501
G1 X56.696 Y105.678 E0.04402
G1 X55.476 Y105.349 E0.03525
G1 X54.371 Y104.805 E0.03439
G1 X49.586 Y100.184 E0.18565
G1 X49.391 Y99.950 E0.00849
G1 X49.061 Y99.659 E0.01228
G1 X47.057 Y97.636 E0.07950
G1 X44.024 Y94.622 E0.11933
G1 X43.735 Y94.294 E0.01220
G1 X43.501 Y94.099 E0.00849
G1 X42.506 Y93.085 E0.03966
G1 X39.696 Y90.294 E0.11055
G1 X38.805 Y88.977 E0.04438
G1 X38.222 Y87.054 E0.05609
G1 X38.253 Y85.278 E0.04958
G1 X38.688 Y83.838 E0.04198
G1 X38.601 Y83.636 E0.00612
G1 X38.338 Y82.528 E0.03180
G1 X38.305 Y81.022 E0.04202
G1 X38.630 Y79.592 E0.04094
G1 X38.907 Y78.998 E0.01828
G1 X38.652 Y77.976 E0.02940
G1 X38.716 Y76.124 E0.05171
G1 X39.051 Y75.002 E0.03269
G1 X39.568 Y73.976 E0.03206
G1 X54.523 Y58.863 E0.59342
G1 X55.733 Y58.055 E0.04061
G1 X57.672 Y57.493 E0.05634
G1 X59.129 Y57.507 E0.04066
G1 X59.979 Y57.729 E0.02452
G1 X60.677 Y57.411 E0.02141
G1 X62.052 Y57.119 E0.03925
G1 X63.663 Y57.176 E0.04500
G1 X64.898 Y57.523 E0.03579
G1 X65.419 Y57.793 E0.01637
G1 X65.785 Y57.633 E0.01116
G1 X66.939 Y57.394 E0.03289
G1 X68.481 Y57.415 E0.04304
G1 X70.045 Y57.856 E0.04535
G1 X71.394 Y58.670 E0.04399
G1 X72.732 Y59.986 E0.05237
G1 X72.924 Y59.644 E0.01094
G1 X73.713 Y58.490 E0.03902
G1 X74.333 Y57.705 E0.02791
G1 X75.289 Y56.661 E0.03951
G1 X76.349 Y55.684 E0.04024
G1 X77.131 Y55.059 E0.02794
G1 X78.330 Y54.239 E0.04054
G1 X79.579 Y53.534 E0.04003
G1 X80.593 Y53.057 E0.03126
G1 X81.933 Y52.547 E0.04002
G1 X83.350 Y52.143 E0.04114
G1 X84.750 Y51.873 E0.03978
G1 X85.736 Y51.753 E0.02772
G1 X87.401 Y51.684 E0.04653
G1 X88.651 Y51.742 E0.03491
G1 X89.673 Y51.857 E0.02871
G1 X90.545 Y52.008 E0.02470
G1 X91.921 Y52.339 E0.03951
G1 X92.807 Y52.622 E0.02596
G1 X94.194 Y53.172 E0.04164
G1 X95.452 Y53.803 E0.03926
G1 X96.654 Y54.538 E0.03934
G1 X97.400 Y55.065 E0.02548
G1 X98.104 Y55.623 E0.02509
G1 X98.738 Y56.183 E0.02360
G1 X99.721 Y57.170 E0.03886
G1 X100.288 Y57.822 E0.02414
G1 X100.848 Y58.541 E0.02543
G1 X101.645 Y59.720 E0.03971
G1 X102.335 Y60.953 E0.03944
G1 X102.943 Y62.301 E0.04127
G1 X103.259 Y63.153 E0.02536
G1 X103.554 Y64.121 E0.02825
G1 X103.839 Y65.337 E0.03486
G1 X104.013 Y66.411 E0.03036
G1 X104.127 Y67.638 E0.03440
G1 X104.153 Y68.507 E0.02427
G1 X104.136 Y69.342 E0.02331
G1 X104.014 Y70.731 E0.03890
G1 X103.873 Y71.646 E0.02586
G1 X103.495 Y73.247 E0.04591
G1 X103.218 Y74.117 E0.02547
G1 X102.700 Y75.433 E0.03948
G1 X102.302 Y76.263 E0.02568
G1 X101.575 Y77.546 E0.04114
G1 X100.818 Y78.652 E0.03741
G1 X100.148 Y79.496 E0.03008
G1 X99.162 Y80.564 E0.04057
G1 X98.093 Y81.537 E0.04034
G1 X96.956 Y82.408 E0.03996
G1 X96.102 Y82.969 E0.02852
G1 X94.749 Y83.718 E0.04318
G1 X93.368 Y84.325 E0.04209
G1 X92.028 Y84.781 E0.03951
G1 X90.976 Y85.053 E0.03032
G1 X89.569 Y85.309 E0.03994
G1 X88.099 Y85.447 E0.04121
G1 X86.667 Y85.455 E0.03995
G1 X86.259 Y85.069 F3000.000
G1 F2400.000
G1 X86.213 Y86.875 E0.05041
G1 X85.774 Y88.249 E0.04026
G1 X85.083 Y89.368 E0.03671
G1 X69.734 Y104.557 E0.60269
G1 X68.793 Y104.981 E0.02880
G1 X67.766 Y105.230 E0.02949
G1 X66.113 Y105.232 E0.04614
G1 X65.259 Y105.008 E0.02464
G1 X64.533 Y105.342 E0.02232
G1 X63.220 Y105.631 E0.03751
G1 X61.810 Y105.600 E0.03936
G1 X60.691 Y105.324 E0.03217
G1 X59.883 Y104.909 E0.02535
G1 X59.410 Y105.124 E0.01451
G1 X58.222 Y105.364 E0.03383
G1 X56.728 Y105.321 E0.04171
G1 X55.588 Y105.009 E0.03300
G1 X54.554 Y104.497 E0.03219
G1 X49.841 Y99.935 E0.18307
G1 X49.648 Y99.701 E0.00845
G1 X49.311 Y99.404 E0.01257
G1 X47.310 Y97.383 E0.07936
G1 X44.280 Y94.373 E0.11920
G1 X43.984 Y94.037 E0.01250
G1 X43.749 Y93.843 E0.00850
G1 X42.759 Y92.833 E0.03945
G1 X39.959 Y90.052 E0.11014
G1 X39.138 Y88.845 E0.04074
G1 X38.579 Y87.031 E0.05298
G1 X38.610 Y85.309 E0.04807
G1 X39.070 Y83.811 E0.04373
G1 X38.944 Y83.535 E0.00847
G1 X38.690 Y82.464 E0.03072
G1 X38.663 Y81.038 E0.03981
G1 X38.973 Y79.692 E0.03856
G1 X39.285 Y79.035 E0.02030
G1 X39.010 Y77.961 E0.03093
G1 X39.065 Y76.203 E0.04909
G1 X39.377 Y75.148 E0.03071
G1 X39.874 Y74.162 E0.03082
G1 X54.764 Y59.127 E0.59058
G1 X55.908 Y58.367 E0.03833
G1 X57.695 Y57.851 E0.05191
G1 X59.102 Y57.864 E0.03929
G1 X60.011 Y58.108 E0.02628
G1 X60.772 Y57.755 E0.02341
G1 X62.063 Y57.476 E0.03686
G1 X63.588 Y57.526 E0.04257
G1 X64.782 Y57.862 E0.03463
G1 X65.407 Y58.191 E0.01972
G1 X65.878 Y57.978 E0.01442
G1 X66.992 Y57.748 E0.03175
G1 X68.452 Y57.771 E0.04076
G1 X69.882 Y58.174 E0.04147
G1 X71.159 Y58.939 E0.04156
G1 X72.816 Y60.570 E0.06488
G1 X73.224 Y59.839 E0.02336
G1 X73.997 Y58.706 E0.03826
G1 X74.601 Y57.942 E0.02720
G1 X75.536 Y56.918 E0.03869
G1 X76.586 Y55.951 E0.03985
G1 X77.338 Y55.350 E0.02687
G1 X78.525 Y54.538 E0.04014
G1 X79.749 Y53.848 E0.03920
G1 X80.726 Y53.389 E0.03014
G1 X82.053 Y52.883 E0.03962
G1 X83.426 Y52.493 E0.03985
G1 X84.811 Y52.225 E0.03939
G1 X85.771 Y52.109 E0.02699
G1 X87.393 Y52.042 E0.04529
G1 X88.628 Y52.099 E0.03453
G1 X89.618 Y52.210 E0.02778
G1 X90.467 Y52.356 E0.02407
G1 X91.819 Y52.681 E0.03880
G1 X92.682 Y52.956 E0.02527
G1 X94.041 Y53.495 E0.04081
G1 X95.285 Y54.118 E0.03883
G1 X96.463 Y54.839 E0.03854
G1 X97.190 Y55.354 E0.02485
G1 X97.872 Y55.894 E0.02430
G1 X98.490 Y56.439 E0.02299
G1 X99.455 Y57.409 E0.03819
G1 X100.010 Y58.046 E0.02358
G1 X100.556 Y58.746 E0.02480
G1 X101.338 Y59.901 E0.03890
G1 X102.020 Y61.120 E0.03901
G1 X102.615 Y62.442 E0.04045
G1 X102.923 Y63.272 E0.02470
G1 X103.208 Y64.208 E0.02732
G1 X103.490 Y65.412 E0.03452
G1 X103.658 Y66.450 E0.02933
G1 X103.770 Y67.666 E0.03407
G1 X103.796 Y68.514 E0.02368
G1 X103.779 Y69.329 E0.02276
G1 X103.659 Y70.693 E0.03823
G1 X103.521 Y71.585 E0.02517
G1 X103.153 Y73.145 E0.04476
G1 X102.883 Y73.992 E0.02479
G1 X102.375 Y75.285 E0.03878
G1 X101.988 Y76.092 E0.02499
G1 X101.268 Y77.363 E0.04076
G1 X100.527 Y78.445 E0.03660
G1 X99.881 Y79.259 E0.02900
G1 X98.916 Y80.305 E0.03974
G1 X97.859 Y81.268 E0.03991
G1 X96.745 Y82.120 E0.03914
G1 X95.912 Y82.667 E0.02780
G1 X94.583 Y83.401 E0.04238
G1 X93.246 Y83.989 E0.04077
G1 X91.919 Y84.440 E0.03911
G1 X90.906 Y84.703 E0.02922
G1 X89.528 Y84.955 E0.03910
G1 X88.073 Y85.090 E0.04077
G1 X86.640 Y85.098 E0.04000
G1 X86.319 Y85.074 E0.00900
G1 X85.795 Y84.675 F3000.000
G1 F2400.000
G1 X85.900 Y85.100 E0.01224
G1 X85.865 Y86.791 E0.04721
G1 X85.441 Y88.120 E0.03892
G1 X84.817 Y89.130 E0.03313
G1 X69.558 Y104.245 E0.59945
G1 X68.662 Y104.648 E0.02743
G1 X67.704 Y104.878 E0.02749
G1 X66.138 Y104.875 E0.04371
G1 X65.227 Y104.628 E0.02635
G1 X64.435 Y104.998 E0.02438
G1 X63.205 Y105.273 E0.03518
G1 X61.876 Y105.249 E0.03709
G1 X60.798 Y104.982 E0.03099
G1 X59.891 Y104.510 E0.02854
G1 X59.317 Y104.778 E0.01769
G1 X58.172 Y105.010 E0.03262
G1 X56.761 Y104.965 E0.03938
G1 X55.700 Y104.670 E0.03074
G1 X54.739 Y104.190 E0.03000
G1 X50.098 Y99.686 E0.18050
G1 X49.906 Y99.453 E0.00843
G1 X49.560 Y99.148 E0.01288
G1 X47.562 Y97.131 E0.07923
G1 X44.536 Y94.124 E0.11907
G1 X44.233 Y93.779 E0.01282
G1 X43.997 Y93.586 E0.00851
G1 X43.013 Y92.581 E0.03924
G1 X40.223 Y89.811 E0.10975
G1 X39.471 Y88.713 E0.03714
G1 X38.937 Y87.009 E0.04984
G1 X38.966 Y85.341 E0.04655
G1 X39.365 Y84.051 E0.03768
G1 X39.479 Y83.839 E0.00674
G1 X39.287 Y83.433 E0.01251
G1 X39.042 Y82.401 E0.02961
G1 X39.020 Y81.055 E0.03757
G1 X39.316 Y79.793 E0.03617
G1 X39.664 Y79.071 E0.02238
G1 X39.367 Y77.945 E0.03251
G1 X39.414 Y76.282 E0.04642
G1 X39.715 Y75.265 E0.02959
G1 X40.180 Y74.349 E0.02869
G1 X55.004 Y59.392 E0.58775
G1 X56.082 Y58.680 E0.03604
G1 X57.717 Y58.208 E0.04751
G1 X59.075 Y58.221 E0.03790
G1 X60.044 Y58.488 E0.02805
G1 X60.869 Y58.099 E0.02547
G1 X62.075 Y57.834 E0.03447
G1 X63.512 Y57.875 E0.04012
G1 X64.666 Y58.200 E0.03345
G1 X65.396 Y58.591 E0.02313
G1 X65.971 Y58.323 E0.01771
G1 X67.044 Y58.101 E0.03058
G1 X68.421 Y58.128 E0.03844
G1 X69.760 Y58.511 E0.03887
G1 X70.956 Y59.233 E0.03900
G1 X72.900 Y61.155 E0.07628
G1 X73.524 Y60.033 E0.03583
