; Generated by Euclid.
; Estimated print time: 17min 58sec
G90
T0
M83
; preamble
M106 S0
; might not need m106 here anymore sice fans always on
G28
G29
G1 X57.0 Y188.0 F9000.0
G1 X-38.0 F9000.0
M109 S225.0
M125 S39
G91
G1 Z1.0 F2000.0
; begin wiping
G1 E11.0 F150.0
G1 E-0.5 F250.0
G90
G4 P1000.0
G1 Y165.0 F6000.0
G1 X-36.0 F6000.0
G1 Y180.0 F6000.0
G1 X-34.0 F6000.0
G1 Y165.0 F6000.0
G91
; end wiping
G1 Z-1.0 F2000.0
G90
G92 E0
; reset extruder value to 0, might not need anymore
M400
; set bed temperature
M140 S30.0
T1
M104 S0.0
T0
; Layer number 1
; skirt
; retract
G0 E-0.5 F306.0
G0 Z0.3 F5400.0
G0 Z0.486 F5400.0
G0 X39.424 Y81.362 F5400.0
; unretract
G0 Z0.186 F5400.0
G0 E0.5 F306.0
G3 X38.859 Y79.969 I1.474 J-1.409 E0.044 F1530.0
G1 X38.859 Y73.969 E0.171 F1530.0
G1 X37.859 Y73.969 E0.029 F1530.0
G1 X37.461 Y73.929 E0.011 F1530.0
G3 X35.995 Y72.693 I0.453 J-2.024 E0.057 F1530.0
G1 X35.888 Y72.308 E0.011 F1530.0
G1 X35.859 Y71.969 E0.01 F1530.0
G1 X35.859 Y64.969 E0.2 F1530.0
G3 X36.209 Y63.839 I2.237 J0.074 E0.034 F1530.0
G1 X36.466 Y63.534 E0.011 F1530.0
G3 X37.859 Y62.969 I1.409 J1.474 E0.044 F1530.0
G1 X77.858 Y62.969 E1.14 F1530.0
G3 X78.988 Y63.319 I-0.074 J2.237 E0.034 F1530.0
G1 X79.293 Y63.576 E0.011 F1530.0
G3 X79.858 Y64.969 I-1.474 J1.409 E0.044 F1530.0
G1 X79.858 Y79.969 E0.428 F1530.0
G3 X79.508 Y81.099 I-2.237 J-0.074 E0.034 F1530.0
G1 X79.251 Y81.404 E0.011 F1530.0
G3 X77.858 Y81.969 I-1.409 J-1.474 E0.044 F1530.0
G1 X40.859 Y81.969 E1.055 F1530.0
G3 X39.729 Y81.619 I0.074 J-2.237 E0.034 F1530.0
G1 X39.424 Y81.362 E0.011 F1530.0
; retract
G0 E-0.5 F306.0
G0 Z0.486 F5400.0
G0 X82.246 Y63.512 F5400.0
; unretract
G0 Z0.186 F5400.0
G0 E0.5 F306.0
G1 X82.157 Y63.122 E0.011 F1530.0
G3 X82.365 Y61.958 I2.238 J-0.201 E0.034 F1530.0
G3 X83.194 Y61.115 I1.952 J1.091 E0.034 F1530.0
G1 X83.563 Y60.962 E0.011 F1530.0
G1 X84.142 Y60.876 E0.017 F1530.0
G1 X112.142 Y60.876 E0.798 F1530.0
G3 X113.272 Y61.226 I-0.074 J2.237 E0.034 F1530.0
G1 X113.577 Y61.483 E0.011 F1530.0
G3 X114.089 Y63.332 I-1.517 J1.415 E0.057 F1530.0
G1 X113.874 Y63.876 E0.017 F1530.0
G1 X99.874 Y88.124 E0.798 F1530.0
G3 X99.006 Y88.928 I-1.901 J-1.182 E0.034 F1530.0
G3 X97.837 Y89.101 I-0.903 J-2.063 E0.034 F1530.0
G3 X96.774 Y88.583 I0.424 J-2.22 E0.034 F1530.0
G1 X96.41 Y88.124 E0.017 F1530.0
G1 X82.41 Y63.876 E0.798 F1530.0
G1 X82.246 Y63.512 E0.011 F1530.0
; retract
G0 E-0.5 F306.0
G0 Z0.486 F5400.0
G0 X84.532 Y63.101 F5400.0
; unretract
G0 Z0.186 F5400.0
G0 E0.5 F306.0
G1 X111.752 Y63.101 E0.586 F1530.0
G1 X98.142 Y86.673 E0.586 F1530.0
G1 X84.532 Y63.101 E0.586 F1530.0
G0 X85.256 Y63.519 Z0.186 F5400.0
G1 X111.028 Y63.519 E0.555 F1530.0
G1 X98.142 Y85.837 E0.555 F1530.0
G1 X85.256 Y63.519 E0.555 F1530.0
G0 X85.98 Y63.937 Z0.186 F5400.0
G1 X110.304 Y63.937 E0.524 F1530.0
G1 X98.142 Y85.001 E0.524 F1530.0
G1 X85.98 Y63.937 E0.524 F1530.0
G0 X86.792 Y64.632 Z0.186 F5400.0
G1 X87.378 Y64.293 E0.015 F1530.0
G0 X87.001 Y64.994 Z0.186 F5400.0
G1 X88.214 Y64.293 E0.03 F1530.0
G1 X89.051 Y64.293 E0.018 F1530.0
G1 X87.21 Y65.356 E0.046 F1530.0
G1 X87.419 Y65.718 E0.009 F1530.0
G1 X89.887 Y64.293 E0.061 F1530.0
G1 X90.723 Y64.293 E0.018 F1530.0
G1 X87.628 Y66.08 E0.077 F1530.0
G1 X87.837 Y66.442 E0.009 F1530.0
G1 X91.559 Y64.293 E0.093 F1530.0
G1 X92.396 Y64.293 E0.018 F1530.0
G1 X88.046 Y66.804 E0.108 F1530.0
G1 X88.255 Y67.166 E0.009 F1530.0
G1 X93.232 Y64.293 E0.124 F1530.0
G1 X94.068 Y64.293 E0.018 F1530.0
G1 X88.464 Y67.528 E0.139 F1530.0
G1 X88.673 Y67.891 E0.009 F1530.0
G1 X94.904 Y64.293 E0.155 F1530.0
G1 X95.74 Y64.293 E0.018 F1530.0
G1 X88.882 Y68.253 E0.171 F1530.0
G1 X89.091 Y68.615 E0.009 F1530.0
G1 X96.577 Y64.293 E0.186 F1530.0
G1 X97.413 Y64.293 E0.018 F1530.0
G1 X89.3 Y68.977 E0.202 F1530.0
G1 X89.509 Y69.339 E0.009 F1530.0
G1 X98.249 Y64.293 E0.217 F1530.0
G1 X99.085 Y64.293 E0.018 F1530.0
G1 X89.719 Y69.701 E0.233 F1530.0
G1 X89.928 Y70.063 E0.009 F1530.0
G1 X99.922 Y64.293 E0.249 F1530.0
G1 X100.758 Y64.293 E0.018 F1530.0
G1 X90.137 Y70.425 E0.264 F1530.0
G1 X90.346 Y70.787 E0.009 F1530.0
G1 X101.594 Y64.293 E0.28 F1530.0
G1 X102.43 Y64.293 E0.018 F1530.0
G1 X90.555 Y71.149 E0.295 F1530.0
G1 X90.764 Y71.511 E0.009 F1530.0
G1 X103.267 Y64.293 E0.311 F1530.0
G1 X104.103 Y64.293 E0.018 F1530.0
G1 X90.973 Y71.874 E0.326 F1530.0
G1 X91.182 Y72.236 E0.009 F1530.0
G1 X104.939 Y64.293 E0.342 F1530.0
G1 X105.775 Y64.293 E0.018 F1530.0
G1 X91.391 Y72.598 E0.358 F1530.0
G1 X91.6 Y72.96 E0.009 F1530.0
G1 X106.612 Y64.293 E0.373 F1530.0
G1 X107.448 Y64.293 E0.018 F1530.0
G1 X91.809 Y73.322 E0.389 F1530.0
G1 X92.018 Y73.684 E0.009 F1530.0
G1 X108.284 Y64.293 E0.404 F1530.0
G1 X109.12 Y64.293 E0.018 F1530.0
G1 X92.227 Y74.046 E0.42 F1530.0
G1 X92.436 Y74.408 E0.009 F1530.0
G1 X109.554 Y64.525 E0.426 F1530.0
G1 X109.136 Y65.25 E0.018 F1530.0
G1 X92.645 Y74.77 E0.41 F1530.0
G1 X92.855 Y75.132 E0.009 F1530.0
G1 X108.717 Y65.974 E0.394 F1530.0
G1 X108.299 Y66.698 E0.018 F1530.0
G1 X93.064 Y75.494 E0.379 F1530.0
G1 X93.273 Y75.857 E0.009 F1530.0
G1 X107.881 Y67.422 E0.363 F1530.0
G1 X107.463 Y68.147 E0.018 F1530.0
G1 X93.482 Y76.219 E0.348 F1530.0
G1 X93.691 Y76.581 E0.009 F1530.0
G1 X107.045 Y68.871 E0.332 F1530.0
G1 X106.627 Y69.595 E0.018 F1530.0
G1 X93.9 Y76.943 E0.316 F1530.0
G1 X94.109 Y77.305 E0.009 F1530.0
G1 X106.209 Y70.319 E0.301 F1530.0
G1 X105.79 Y71.043 E0.018 F1530.0
G1 X94.318 Y77.667 E0.285 F1530.0
G1 X94.527 Y78.029 E0.009 F1530.0
G1 X105.372 Y71.768 E0.27 F1530.0
G1 X104.954 Y72.492 E0.018 F1530.0
G1 X94.736 Y78.391 E0.254 F1530.0
G1 X94.945 Y78.753 E0.009 F1530.0
G1 X104.536 Y73.216 E0.238 F1530.0
G1 X104.118 Y73.94 E0.018 F1530.0
G1 X95.154 Y79.115 E0.223 F1530.0
G1 X95.363 Y79.478 E0.009 F1530.0
G1 X103.7 Y74.665 E0.207 F1530.0
G1 X103.281 Y75.389 E0.018 F1530.0
G1 X95.572 Y79.84 E0.192 F1530.0
G1 X95.781 Y80.202 E0.009 F1530.0
G1 X102.863 Y76.113 E0.176 F1530.0
G1 X102.445 Y76.837 E0.018 F1530.0
G1 X95.991 Y80.564 E0.16 F1530.0
G1 X96.2 Y80.926 E0.009 F1530.0
G1 X102.027 Y77.561 E0.145 F1530.0
G1 X101.609 Y78.286 E0.018 F1530.0
G1 X96.409 Y81.288 E0.129 F1530.0
G1 X96.618 Y81.65 E0.009 F1530.0
G1 X101.191 Y79.01 E0.114 F1530.0
G1 X100.772 Y79.734 E0.018 F1530.0
G1 X96.827 Y82.012 E0.098 F1530.0
G1 X97.036 Y82.374 E0.009 F1530.0
G1 X100.354 Y80.458 E0.083 F1530.0
G1 X99.936 Y81.183 E0.018 F1530.0
G1 X97.245 Y82.736 E0.067 F1530.0
G1 X97.454 Y83.098 E0.009 F1530.0
G1 X99.518 Y81.907 E0.051 F1530.0
G1 X99.1 Y82.631 E0.018 F1530.0
G1 X97.663 Y83.461 E0.036 F1530.0
G1 X97.872 Y83.823 E0.009 F1530.0
G1 X98.682 Y83.355 E0.02 F1530.0
; retract
G0 E-0.5 F306.0
G0 Z0.486 F5400.0
G0 X77.633 Y79.744 F5400.0
; unretract
G0 Z0.186 F5400.0
G0 E0.5 F306.0
G1 X41.084 Y79.744 E0.787 F1530.0
G1 X41.084 Y71.969 E0.167 F1530.0
G1 X41.045 Y71.842 E0.003 F1530.0
G1 X40.941 Y71.76 E0.003 F1530.0
G1 X40.859 Y71.744 E0.002 F1530.0
G1 X38.084 Y71.744 E0.06 F1530.0
G1 X38.084 Y65.194 E0.141 F1530.0
G1 X77.633 Y65.194 E0.852 F1530.0
G1 X77.633 Y79.744 E0.313 F1530.0
G0 X77.215 Y79.326 Z0.186 F5400.0
G1 X41.502 Y79.326 E0.769 F1530.0
G1 X41.502 Y71.969 E0.158 F1530.0
G2 X41.174 Y71.408 I-0.718 J0.044 E0.015 F1530.0
G1 X40.859 Y71.326 E0.007 F1530.0
G1 X38.502 Y71.326 E0.051 F1530.0
G1 X38.502 Y65.612 E0.123 F1530.0
G1 X77.215 Y65.612 E0.834 F1530.0
G1 X77.215 Y79.326 E0.295 F1530.0
G0 X76.797 Y78.908 Z0.186 F5400.0
G1 X41.92 Y78.908 E0.751 F1530.0
G1 X41.92 Y71.969 E0.149 F1530.0
G2 X41.579 Y71.19 I-1.182 J0.053 E0.019 F1530.0
G2 X40.859 Y70.908 I-0.775 J0.919 E0.017 F1530.0
G1 X38.92 Y70.908 E0.042 F1530.0
G1 X38.92 Y66.03 E0.105 F1530.0
G1 X76.797 Y66.03 E0.816 F1530.0
G1 X76.797 Y78.908 E0.277 F1530.0
G0 X76.441 Y78.211 Z0.186 F5400.0
G1 X75.851 Y78.552 E0.015 F1530.0
G0 X76.441 Y77.729 Z0.186 F5400.0
G1 X75.015 Y78.552 E0.035 F1530.0
G1 X74.178 Y78.552 E0.018 F1530.0
G1 X76.441 Y77.246 E0.056 F1530.0
G1 X76.441 Y76.763 E0.01 F1530.0
G1 X73.342 Y78.552 E0.077 F1530.0
G1 X72.506 Y78.552 E0.018 F1530.0
G1 X76.441 Y76.28 E0.098 F1530.0
G1 X76.441 Y75.797 E0.01 F1530.0
G1 X71.67 Y78.552 E0.119 F1530.0
G1 X70.834 Y78.552 E0.018 F1530.0
G1 X76.441 Y75.315 E0.139 F1530.0
G1 X76.441 Y74.832 E0.01 F1530.0
G1 X69.997 Y78.552 E0.16 F1530.0
G1 X69.161 Y78.552 E0.018 F1530.0
G1 X76.441 Y74.349 E0.181 F1530.0
G1 X76.441 Y73.866 E0.01 F1530.0
G1 X68.325 Y78.552 E0.202 F1530.0
G1 X67.489 Y78.552 E0.018 F1530.0
G1 X76.441 Y73.383 E0.223 F1530.0
G1 X76.441 Y72.901 E0.01 F1530.0
G1 X66.652 Y78.552 E0.243 F1530.0
G1 X65.816 Y78.552 E0.018 F1530.0
G1 X76.441 Y72.418 E0.264 F1530.0
G1 X76.441 Y71.935 E0.01 F1530.0
G1 X64.98 Y78.552 E0.285 F1530.0
G1 X64.144 Y78.552 E0.018 F1530.0
G1 X76.441 Y71.452 E0.306 F1530.0
G1 X76.441 Y70.969 E0.01 F1530.0
G1 X63.307 Y78.552 E0.327 F1530.0
G1 X62.471 Y78.552 E0.018 F1530.0
G1 X76.441 Y70.487 E0.347 F1530.0
G1 X76.441 Y70.004 E0.01 F1530.0
G1 X61.635 Y78.552 E0.368 F1530.0
G1 X60.799 Y78.552 E0.018 F1530.0
G1 X76.441 Y69.521 E0.389 F1530.0
G1 X76.441 Y69.038 E0.01 F1530.0
G1 X59.962 Y78.552 E0.41 F1530.0
G1 X59.126 Y78.552 E0.018 F1530.0
G1 X76.441 Y68.555 E0.431 F1530.0
G1 X76.441 Y68.073 E0.01 F1530.0
G1 X58.29 Y78.552 E0.451 F1530.0
G1 X57.454 Y78.552 E0.018 F1530.0
G1 X76.441 Y67.59 E0.472 F1530.0
G1 X76.441 Y67.107 E0.01 F1530.0
G1 X56.618 Y78.552 E0.493 F1530.0
G1 X55.781 Y78.552 E0.018 F1530.0
G1 X76.441 Y66.624 E0.514 F1530.0
G1 X76.017 Y66.386 E0.01 F1530.0
G1 X54.945 Y78.552 E0.524 F1530.0
G1 X54.109 Y78.552 E0.018 F1530.0
G1 X75.181 Y66.386 E0.524 F1530.0
G1 X74.345 Y66.386 E0.018 F1530.0
G1 X53.273 Y78.552 E0.524 F1530.0
G1 X52.436 Y78.552 E0.018 F1530.0
G1 X73.509 Y66.386 E0.524 F1530.0
G1 X72.672 Y66.386 E0.018 F1530.0
G1 X51.6 Y78.552 E0.524 F1530.0
G1 X50.764 Y78.552 E0.018 F1530.0
G1 X71.836 Y66.386 E0.524 F1530.0
G1 X71.0 Y66.386 E0.018 F1530.0
G1 X49.928 Y78.552 E0.524 F1530.0
G1 X49.091 Y78.552 E0.018 F1530.0
G1 X70.164 Y66.386 E0.524 F1530.0
G1 X69.327 Y66.386 E0.018 F1530.0
G1 X48.255 Y78.552 E0.524 F1530.0
G1 X47.419 Y78.552 E0.018 F1530.0
G1 X68.491 Y66.386 E0.524 F1530.0
G1 X67.655 Y66.386 E0.018 F1530.0
G1 X46.583 Y78.552 E0.524 F1530.0
G1 X45.747 Y78.552 E0.018 F1530.0
G1 X66.819 Y66.386 E0.524 F1530.0
G1 X65.982 Y66.386 E0.018 F1530.0
G1 X44.91 Y78.552 E0.524 F1530.0
G1 X44.074 Y78.552 E0.018 F1530.0
G1 X65.146 Y66.386 E0.524 F1530.0
G1 X64.31 Y66.386 E0.018 F1530.0
G1 X43.238 Y78.552 E0.524 F1530.0
G1 X42.402 Y78.552 E0.018 F1530.0
G1 X63.474 Y66.386 E0.524 F1530.0
G1 X62.637 Y66.386 E0.018 F1530.0
G1 X42.276 Y78.142 E0.506 F1530.0
G1 X42.276 Y77.659 E0.01 F1530.0
G1 X61.801 Y66.386 E0.486 F1530.0
G1 X60.965 Y66.386 E0.018 F1530.0
G1 X42.276 Y77.176 E0.465 F1530.0
G1 X42.276 Y76.693 E0.01 F1530.0
G1 X60.129 Y66.386 E0.444 F1530.0
G1 X59.293 Y66.386 E0.018 F1530.0
G1 X42.276 Y76.211 E0.423 F1530.0
G1 X42.276 Y75.728 E0.01 F1530.0
G1 X58.456 Y66.386 E0.402 F1530.0
G1 X57.62 Y66.386 E0.018 F1530.0
G1 X42.276 Y75.245 E0.382 F1530.0
G1 X42.276 Y74.762 E0.01 F1530.0
G1 X56.784 Y66.386 E0.361 F1530.0
G1 X55.948 Y66.386 E0.018 F1530.0
G1 X42.276 Y74.279 E0.34 F1530.0
G1 X42.276 Y73.797 E0.01 F1530.0
G1 X55.111 Y66.386 E0.319 F1530.0
G1 X54.275 Y66.386 E0.018 F1530.0
G1 X42.276 Y73.314 E0.298 F1530.0
G1 X42.276 Y72.831 E0.01 F1530.0
G1 X53.439 Y66.386 E0.278 F1530.0
G1 X52.603 Y66.386 E0.018 F1530.0
G1 X42.276 Y72.348 E0.257 F1530.0
G1 X42.264 Y71.872 E0.01 F1530.0
G1 X51.766 Y66.386 E0.236 F1530.0
G1 X50.93 Y66.386 E0.018 F1530.0
G1 X42.166 Y71.446 E0.218 F1530.0
G1 X41.959 Y71.083 E0.009 F1530.0
G1 X50.094 Y66.386 E0.202 F1530.0
G1 X49.258 Y66.386 E0.018 F1530.0
G1 X41.632 Y70.789 E0.19 F1530.0
G1 X41.143 Y70.588 E0.011 F1530.0
G1 X48.422 Y66.386 E0.181 F1530.0
G1 X47.585 Y66.386 E0.018 F1530.0
G1 X40.37 Y70.552 E0.179 F1530.0
G1 X39.533 Y70.552 E0.018 F1530.0
G1 X46.749 Y66.386 E0.179 F1530.0
G1 X45.913 Y66.386 E0.018 F1530.0
G1 X39.276 Y70.218 E0.165 F1530.0
G1 X39.276 Y69.735 E0.01 F1530.0
G1 X45.077 Y66.386 E0.144 F1530.0
G1 X44.24 Y66.386 E0.018 F1530.0
G1 X39.276 Y69.252 E0.123 F1530.0
G1 X39.276 Y68.769 E0.01 F1530.0
G1 X43.404 Y66.386 E0.103 F1530.0
G1 X42.568 Y66.386 E0.018 F1530.0
G1 X39.276 Y68.287 E0.082 F1530.0
G1 X39.276 Y67.804 E0.01 F1530.0
G1 X41.732 Y66.386 E0.061 F1530.0
G1 X40.895 Y66.386 E0.018 F1530.0
G1 X39.276 Y67.321 E0.04 F1530.0
G1 X39.276 Y66.838 E0.01 F1530.0
G1 X40.059 Y66.386 E0.019 F1530.0
; Layer number 2
; retract
G0 E-0.5 F306.0
G0 Z0.486 F5400.0
; after first layer
M106 S255
M104 S200.0
G0 Z0.671 F5400.0
G0 X89.695 Y66.082 F5400.0
; unretract
G0 Z0.371 F5400.0
G0 E0.5 F306.0
G1 X92.168 Y70.367 E0.107 F2988.0
G1 X92.173 Y70.531 E0.004 F2988.0
G1 X91.656 Y71.578 E0.025 F2988.0
G1 X94.363 Y76.266 E0.117 F2988.0
G1 X95.527 Y76.341 E0.025 F2988.0
G1 X95.668 Y76.428 E0.004 F2988.0
G1 X98.142 Y80.712 E0.107 F2988.0
G1 X100.614 Y76.429 E0.107 F2988.0
G1 X100.755 Y76.341 E0.004 F2988.0
G1 X101.921 Y76.266 E0.025 F2988.0
G1 X104.627 Y71.579 E0.117 F2988.0
G1 X104.109 Y70.532 E0.025 F2988.0
G1 X104.114 Y70.366 E0.004 F2988.0
G1 X106.588 Y66.082 E0.107 F2988.0
G1 X101.642 Y66.082 E0.107 F2988.0
G1 X101.496 Y66.004 E0.004 F2988.0
G1 X100.848 Y65.032 E0.025 F2988.0
G1 X95.436 Y65.032 E0.117 F2988.0
G1 X94.788 Y66.004 E0.025 F2988.0
G1 X94.642 Y66.082 E0.004 F2988.0
G1 X89.695 Y66.082 E0.107 F2988.0
G0 X90.433 Y66.57 Z0.371 F5400.0
G1 X90.494 Y66.471 E0.003 F2988.0
G1 X90.604 Y66.432 E0.003 F2988.0
G1 X94.642 Y66.432 E0.087 F2988.0
G1 X94.788 Y66.51 E0.004 F2988.0
G1 X95.436 Y67.482 E0.025 F2988.0
G1 X100.848 Y67.482 E0.117 F2988.0
G1 X101.496 Y66.51 E0.025 F2988.0
G1 X101.642 Y66.432 E0.004 F2988.0
G1 X105.68 Y66.432 E0.087 F2988.0
G1 X105.797 Y66.477 E0.003 F2988.0
G1 X105.853 Y66.58 E0.003 F2988.0
G1 X105.832 Y66.695 E0.003 F2988.0
G1 X103.813 Y70.192 E0.087 F2988.0
G1 X103.672 Y70.279 E0.004 F2988.0
G1 X102.505 Y70.354 E0.025 F2988.0
G1 X99.8 Y75.041 E0.117 F2988.0
G1 X100.318 Y76.088 E0.025 F2988.0
G1 X100.313 Y76.254 E0.004 F2988.0
G1 X98.294 Y79.751 E0.087 F2988.0
G1 X98.196 Y79.83 E0.003 F2988.0
G1 X98.079 Y79.826 E0.003 F2988.0
G1 X97.99 Y79.751 E0.003 F2988.0
G1 X95.97 Y76.254 E0.087 F2988.0
G1 X95.965 Y76.088 E0.004 F2988.0
G1 X96.483 Y75.041 E0.025 F2988.0
G1 X93.777 Y70.354 E0.117 F2988.0
G1 X92.611 Y70.279 E0.025 F2988.0
G1 X92.47 Y70.191 E0.004 F2988.0
G1 X90.452 Y66.694 E0.087 F2988.0
G1 X90.433 Y66.57 E0.003 F2988.0
; retract
G0 E-0.5 F306.0
G0 Z0.671 F5400.0
G0 X92.701 Y70.665 F5400.0
; unretract
G0 Z0.371 F5400.0
G0 E0.5 F306.0
G1 X92.799 Y70.642 E0.002 F2988.0
G1 X93.476 Y70.685 E0.015 F2988.0
G1 X93.617 Y70.772 E0.004 F2988.0
G1 X96.042 Y74.972 E0.105 F2988.0
G1 X96.047 Y75.138 E0.004 F2988.0
G1 X95.747 Y75.744 E0.015 F2988.0
G1 X95.677 Y75.818 E0.002 F2988.0
G1 X95.438 Y75.955 E0.006 F2988.0
G1 X95.34 Y75.978 E0.002 F2988.0
G1 X94.665 Y75.935 E0.015 F2988.0
G1 X94.524 Y75.847 E0.004 F2988.0
G1 X92.1 Y71.647 E0.105 F2988.0
G1 X92.095 Y71.483 E0.004 F2988.0
G1 X92.393 Y70.877 E0.015 F2988.0
G1 X92.463 Y70.802 E0.002 F2988.0
G1 X92.701 Y70.665 E0.006 F2988.0
; retract
G0 E-0.5 F306.0
G0 Z0.671 F5400.0
G0 X100.242 Y74.973 F5400.0
; unretract
G0 Z0.371 F5400.0
G0 E0.5 F306.0
G1 X102.666 Y70.773 E0.105 F2988.0
G1 X102.807 Y70.685 E0.004 F2988.0
G1 X103.484 Y70.642 E0.015 F2988.0
G1 X103.582 Y70.665 E0.002 F2988.0
G1 X103.82 Y70.802 E0.006 F2988.0
G1 X103.89 Y70.877 E0.002 F2988.0
G1 X104.189 Y71.483 E0.015 F2988.0
G1 X104.184 Y71.647 E0.004 F2988.0
G1 X101.76 Y75.847 E0.105 F2988.0
G1 X101.619 Y75.935 E0.004 F2988.0
G1 X100.943 Y75.978 E0.015 F2988.0
G1 X100.845 Y75.955 E0.002 F2988.0
G1 X100.607 Y75.818 E0.006 F2988.0
G1 X100.537 Y75.744 E0.002 F2988.0
G1 X100.237 Y75.138 E0.015 F2988.0
G1 X100.242 Y74.973 E0.004 F2988.0
; retract
G0 E-0.5 F306.0
G0 Z0.671 F5400.0
G0 X100.731 Y67.172 F5400.0
; unretract
G0 Z0.371 F5400.0
G0 E0.5 F306.0
G1 X100.731 Y65.342 E0.039 F2988.0
G1 X100.412 Y65.302 E0.007 F2988.0
G1 X100.412 Y67.212 E0.041 F2988.0
G1 X100.094 Y67.212 E0.007 F2988.0
G1 X100.094 Y65.302 E0.041 F2988.0
G1 X99.776 Y65.302 E0.007 F2988.0
G1 X99.776 Y67.212 E0.041 F2988.0
G1 X99.458 Y67.212 E0.007 F2988.0
G1 X99.458 Y65.302 E0.041 F2988.0
