; Generated by Euclid.
; Estimated print time: 32min 54sec
G90
T0
M83
; preamble
M106 S0
; might not need m106 here anymore sice fans always on
G28
G29
G1 X57.0 Y188.0 F9000.0
G1 X-38.0 F9000.0
M109 S225.0
M125 S39
G91
G1 Z1.0 F2000.0
; begin wiping
G1 E11.0 F150.0
G1 E-0.5 F250.0
G90
G4 P1000.0
G1 Y165.0 F6000.0
G1 X-36.0 F6000.0
G1 Y180.0 F6000.0
G1 X-34.0 F6000.0
G1 Y165.0 F6000.0
G91
; end wiping
G1 Z-1.0 F2000.0
G90
G92 E0
; reset extruder value to 0, might not need anymore
M400
; set bed temperature
M140 S45.0
T1
M104 S0.0
T0
; Layer number 1
; skirt
; retract
G0 E-0.5 F306.0
G0 Z0.3 F5400.0
G0 Z0.488 F5400.0
G0 X45.454 Y100.685 F5400.0
; unretract
G0 Z0.188 F5400.0
G0 E0.5 F306.0
G1 X45.091 Y100.227 E0.017 F1530.0
G1 X44.685 Y99.524 E0.023 F1530.0
G1 X44.47 Y98.982 E0.017 F1530.0
G1 X44.284 Y98.192 E0.023 F1530.0
G1 X44.235 Y97.611 E0.017 F1530.0
G3 X44.325 Y96.499 I14.58 J0.62 E0.032 F1530.0
G3 X44.862 Y95.09 I8.761 J2.532 E0.043 F1530.0
G1 X70.843 Y50.09 E1.477 F1530.0
G3 X71.936 Y48.813 I5.608 J3.693 E0.048 F1530.0
G3 X72.923 Y48.165 I6.364 J8.618 E0.034 F1530.0
G3 X74.594 Y47.72 I2.511 J6.068 E0.049 F1530.0
G1 X75.406 Y47.72 E0.023 F1530.0
G1 X75.983 Y47.805 E0.017 F1530.0
G3 X77.149 Y48.201 I-2.248 J8.535 E0.035 F1530.0
G3 X78.488 Y49.212 I-3.314 J5.781 E0.048 F1530.0
G1 X78.992 Y49.848 E0.023 F1530.0
G1 X79.157 Y50.09 E0.008 F1530.0
G1 X105.138 Y95.09 E1.477 F1530.0
G3 X105.698 Y96.677 I-5.947 J2.991 E0.048 F1530.0
G3 X105.767 Y97.834 I-11.908 J1.291 E0.033 F1530.0
G3 X105.315 Y99.524 I-6.485 J-0.829 E0.05 F1530.0
G1 X104.909 Y100.227 E0.023 F1530.0
G1 X104.546 Y100.685 E0.017 F1530.0
G3 X103.639 Y101.485 I-6.852 J-6.854 E0.034 F1530.0
G3 X102.075 Y102.151 I-3.372 J-5.75 E0.048 F1530.0
G1 X101.272 Y102.269 E0.023 F1530.0
G1 X100.981 Y102.29 E0.008 F1530.0
G1 X48.939 Y102.281 E1.479 F1530.0
G3 X47.367 Y101.983 I0.336 J-6.067 E0.046 F1530.0
G3 X46.293 Y101.439 I3.902 J-9.035 E0.034 F1530.0
G1 X46.045 Y101.24 E0.009 F1530.0
G1 X45.454 Y100.685 E0.023 F1530.0
; retract
G0 E-0.5 F306.0
G0 Z0.488 F5400.0
G0 X47.002 Y99.087 F5400.0
; unretract
G0 Z0.188 F5400.0
G0 E0.5 F306.0
G1 X46.628 Y98.439 E0.016 F1530.0
G1 X46.458 Y97.716 E0.016 F1530.0
G1 X46.505 Y96.95 E0.017 F1530.0
G1 X46.513 Y96.903 E0.001 F1530.0
G1 X46.796 Y96.191 E0.017 F1530.0
G1 X72.764 Y51.214 E1.128 F1530.0
G1 X73.233 Y50.621 E0.016 F1530.0
G1 X73.864 Y50.182 E0.017 F1530.0
G1 X73.902 Y50.163 E0.001 F1530.0
G1 X74.626 Y49.945 E0.016 F1530.0
G1 X75.374 Y49.945 E0.016 F1530.0
G1 X76.098 Y50.163 E0.016 F1530.0
G1 X76.136 Y50.182 E0.001 F1530.0
G1 X76.767 Y50.621 E0.017 F1530.0
G1 X77.236 Y51.214 E0.016 F1530.0
G1 X103.204 Y96.191 E1.128 F1530.0
G1 X103.484 Y96.896 E0.016 F1530.0
G1 X103.547 Y97.654 E0.017 F1530.0
G1 X103.545 Y97.703 E0.001 F1530.0
G1 X103.372 Y98.439 E0.016 F1530.0
G1 X102.998 Y99.087 E0.016 F1530.0
G1 X102.444 Y99.607 E0.017 F1530.0
G1 X102.409 Y99.631 E0.001 F1530.0
G1 X101.72 Y99.954 E0.017 F1530.0
G1 X100.962 Y100.065 E0.017 F1530.0
G1 X48.953 Y100.056 E1.13 F1530.0
G1 X48.283 Y99.955 E0.015 F1530.0
G1 X47.591 Y99.631 E0.017 F1530.0
G1 X47.556 Y99.607 E0.001 F1530.0
G1 X47.002 Y99.087 E0.017 F1530.0
G0 X47.333 Y98.824 Z0.188 F5400.0
G1 X47.021 Y98.283 E0.014 F1530.0
G1 X46.879 Y97.68 E0.013 F1530.0
G1 X46.92 Y97.013 E0.015 F1530.0
G1 X47.174 Y96.372 E0.015 F1530.0
G1 X73.11 Y51.449 E1.127 F1530.0
G1 X73.522 Y50.929 E0.014 F1530.0
G1 X74.066 Y50.551 E0.014 F1530.0
G1 X74.689 Y50.363 E0.014 F1530.0
G1 X75.311 Y50.363 E0.014 F1530.0
G1 X75.934 Y50.551 E0.014 F1530.0
G1 X76.478 Y50.929 E0.014 F1530.0
G1 X76.89 Y51.449 E0.014 F1530.0
G1 X102.826 Y96.372 E1.127 F1530.0
G1 X103.072 Y96.993 E0.015 F1530.0
G1 X103.127 Y97.653 E0.014 F1530.0
G1 X102.979 Y98.283 E0.014 F1530.0
G1 X102.667 Y98.824 E0.014 F1530.0
G1 X102.19 Y99.272 E0.014 F1530.0
G1 X101.597 Y99.55 E0.014 F1530.0
G1 X100.936 Y99.647 E0.015 F1530.0
G1 X48.989 Y99.638 E1.128 F1530.0
G1 X48.403 Y99.55 E0.013 F1530.0
G1 X47.81 Y99.272 E0.014 F1530.0
G1 X47.333 Y98.824 E0.014 F1530.0
G0 X47.665 Y98.563 Z0.188 F5400.0
G1 X47.414 Y98.128 E0.011 F1530.0
G1 X47.3 Y97.642 E0.011 F1530.0
G1 X47.333 Y97.104 E0.012 F1530.0
G1 X47.55 Y96.557 E0.013 F1530.0
G1 X73.455 Y51.688 E1.125 F1530.0
G1 X73.813 Y51.236 E0.013 F1530.0
G1 X74.251 Y50.932 E0.012 F1530.0
G1 X74.751 Y50.781 E0.011 F1530.0
G1 X75.249 Y50.781 E0.011 F1530.0
G1 X75.749 Y50.932 E0.011 F1530.0
G1 X76.187 Y51.236 E0.012 F1530.0
G1 X76.545 Y51.688 E0.013 F1530.0
G1 X102.45 Y96.557 E1.125 F1530.0
G1 X102.661 Y97.089 E0.012 F1530.0
G1 X102.706 Y97.62 E0.012 F1530.0
G1 X102.586 Y98.128 E0.011 F1530.0
G1 X102.335 Y98.563 E0.011 F1530.0
G1 X101.955 Y98.92 E0.011 F1530.0
G1 X101.475 Y99.145 E0.012 F1530.0
G1 X100.902 Y99.229 E0.013 F1530.0
G1 X49.017 Y99.22 E1.127 F1530.0
G1 X48.528 Y99.146 E0.011 F1530.0
G1 X48.045 Y98.92 E0.012 F1530.0
G1 X47.665 Y98.563 E0.011 F1530.0
; retract
G0 E-0.5 F306.0
G0 Z0.488 F5400.0
G0 X68.465 Y92.542 F5400.0
; unretract
G0 Z0.188 F5400.0
G0 E0.5 F306.0
G1 X68.914 Y93.626 E0.025 F1530.0
G1 X68.943 Y93.677 E0.001 F1530.0
G1 X69.658 Y94.609 E0.026 F1530.0
G1 X69.7 Y94.65 E0.001 F1530.0
G1 X70.632 Y95.366 E0.026 F1530.0
G1 X70.683 Y95.396 E0.001 F1530.0
G1 X71.769 Y95.845 E0.026 F1530.0
G1 X71.826 Y95.86 E0.001 F1530.0
G1 X72.99 Y96.013 E0.026 F1530.0
G1 X73.048 Y96.013 E0.001 F1530.0
G1 X74.213 Y95.86 E0.026 F1530.0
G1 X74.27 Y95.845 E0.001 F1530.0
G1 X75.355 Y95.396 E0.026 F1530.0
G1 X75.406 Y95.366 E0.001 F1530.0
G1 X76.338 Y94.65 E0.026 F1530.0
G1 X76.38 Y94.609 E0.001 F1530.0
G1 X77.095 Y93.677 E0.026 F1530.0
G1 X77.124 Y93.626 E0.001 F1530.0
G1 X77.574 Y92.542 E0.025 F1530.0
G1 X77.589 Y92.485 E0.001 F1530.0
G1 X77.742 Y91.319 E0.026 F1530.0
G1 X77.742 Y91.261 E0.001 F1530.0
G1 X77.589 Y90.096 E0.026 F1530.0
G1 X77.574 Y90.039 E0.001 F1530.0
G1 X77.124 Y88.954 E0.026 F1530.0
G1 X77.095 Y88.903 E0.001 F1530.0
G1 X76.38 Y87.971 E0.026 F1530.0
G1 X76.338 Y87.929 E0.001 F1530.0
G1 X75.406 Y87.214 E0.026 F1530.0
G1 X75.355 Y87.185 E0.001 F1530.0
G1 X74.27 Y86.736 E0.026 F1530.0
G1 X74.213 Y86.721 E0.001 F1530.0
G1 X73.048 Y86.567 E0.026 F1530.0
G1 X72.989 Y86.567 E0.001 F1530.0
G1 X71.825 Y86.721 E0.026 F1530.0
G1 X71.769 Y86.736 E0.001 F1530.0
G1 X70.683 Y87.185 E0.026 F1530.0
G1 X70.632 Y87.214 E0.001 F1530.0
G1 X69.7 Y87.929 E0.026 F1530.0
G1 X69.658 Y87.971 E0.001 F1530.0
G1 X68.943 Y88.903 E0.026 F1530.0
G1 X68.914 Y88.954 E0.001 F1530.0
G1 X68.465 Y90.039 E0.026 F1530.0
G1 X68.45 Y90.096 E0.001 F1530.0
G1 X68.296 Y91.261 E0.026 F1530.0
G1 X68.296 Y91.319 E0.001 F1530.0
G1 X68.45 Y92.485 E0.026 F1530.0
G1 X68.465 Y92.542 E0.001 F1530.0
G0 X68.079 Y92.702 Z0.188 F5400.0
G1 X68.528 Y93.786 E0.025 F1530.0
G1 X68.612 Y93.931 E0.004 F1530.0
G1 X69.327 Y94.863 E0.026 F1530.0
G1 X69.445 Y94.982 E0.004 F1530.0
G1 X70.377 Y95.698 E0.026 F1530.0
G1 X70.523 Y95.782 E0.004 F1530.0
G1 X71.609 Y96.231 E0.026 F1530.0
G1 X71.771 Y96.275 E0.004 F1530.0
G1 X72.935 Y96.428 E0.026 F1530.0
G1 X73.103 Y96.428 E0.004 F1530.0
G1 X74.268 Y96.275 E0.026 F1530.0
G1 X74.43 Y96.231 E0.004 F1530.0
G1 X75.515 Y95.782 E0.026 F1530.0
G1 X75.661 Y95.698 E0.004 F1530.0
G1 X76.593 Y94.982 E0.026 F1530.0
G1 X76.711 Y94.863 E0.004 F1530.0
G1 X77.426 Y93.931 E0.026 F1530.0
G1 X77.51 Y93.787 E0.004 F1530.0
G1 X77.96 Y92.703 E0.025 F1530.0
G1 X78.004 Y92.54 E0.004 F1530.0
G1 X78.157 Y91.374 E0.026 F1530.0
G1 X78.157 Y91.206 E0.004 F1530.0
G1 X78.004 Y90.041 E0.026 F1530.0
G1 X77.96 Y89.879 E0.004 F1530.0
G1 X77.51 Y88.794 E0.026 F1530.0
G1 X77.426 Y88.649 E0.004 F1530.0
G1 X76.711 Y87.717 E0.026 F1530.0
G1 X76.592 Y87.598 E0.004 F1530.0
G1 X75.66 Y86.883 E0.026 F1530.0
G1 X75.515 Y86.799 E0.004 F1530.0
G1 X74.43 Y86.35 E0.026 F1530.0
G1 X74.268 Y86.307 E0.004 F1530.0
G1 X73.103 Y86.153 E0.026 F1530.0
G1 X72.935 Y86.153 E0.004 F1530.0
G1 X71.771 Y86.307 E0.026 F1530.0
G1 X71.609 Y86.35 E0.004 F1530.0
G1 X70.523 Y86.799 E0.026 F1530.0
G1 X70.378 Y86.883 E0.004 F1530.0
G1 X69.446 Y87.598 E0.026 F1530.0
G1 X69.327 Y87.717 E0.004 F1530.0
G1 X68.612 Y88.649 E0.026 F1530.0
G1 X68.528 Y88.794 E0.004 F1530.0
G1 X68.079 Y89.879 E0.026 F1530.0
G1 X68.036 Y90.041 E0.004 F1530.0
G1 X67.882 Y91.206 E0.026 F1530.0
G1 X67.882 Y91.374 E0.004 F1530.0
G1 X68.036 Y92.54 E0.026 F1530.0
G1 X68.079 Y92.702 E0.004 F1530.0
G0 X67.693 Y92.862 Z0.188 F5400.0
G1 X68.142 Y93.946 E0.025 F1530.0
G1 X68.28 Y94.186 E0.006 F1530.0
G1 X68.995 Y95.118 E0.026 F1530.0
G1 X69.191 Y95.313 E0.006 F1530.0
G1 X70.123 Y96.029 E0.026 F1530.0
G1 X70.364 Y96.169 E0.006 F1530.0
G1 X71.45 Y96.618 E0.026 F1530.0
G1 X71.717 Y96.689 E0.006 F1530.0
G1 X72.881 Y96.842 E0.026 F1530.0
G1 X73.157 Y96.842 E0.006 F1530.0
G1 X74.322 Y96.689 E0.026 F1530.0
G1 X74.59 Y96.617 E0.006 F1530.0
G1 X75.675 Y96.168 E0.026 F1530.0
G1 X75.915 Y96.029 E0.006 F1530.0
G1 X76.847 Y95.313 E0.026 F1530.0
G1 X77.043 Y95.118 E0.006 F1530.0
G1 X77.758 Y94.186 E0.026 F1530.0
G1 X77.896 Y93.947 E0.006 F1530.0
G1 X78.346 Y92.863 E0.025 F1530.0
G1 X78.418 Y92.594 E0.006 F1530.0
G1 X78.571 Y91.428 E0.026 F1530.0
G1 X78.571 Y91.152 E0.006 F1530.0
G1 X78.418 Y89.987 E0.026 F1530.0
G1 X78.346 Y89.719 E0.006 F1530.0
G1 X77.896 Y88.634 E0.026 F1530.0
G1 X77.758 Y88.394 E0.006 F1530.0
G1 X77.043 Y87.462 E0.026 F1530.0
G1 X76.847 Y87.266 E0.006 F1530.0
G1 X75.915 Y86.551 E0.026 F1530.0
G1 X75.675 Y86.413 E0.006 F1530.0
G1 X74.59 Y85.964 E0.026 F1530.0
G1 X74.323 Y85.892 E0.006 F1530.0
G1 X73.158 Y85.738 E0.026 F1530.0
G1 X72.88 Y85.738 E0.006 F1530.0
G1 X71.786 Y85.883 E0.024 F1530.0
G1 X71.913 Y85.83 E0.003 F1530.0
G1 X72.153 Y85.692 E0.006 F1530.0
G1 X73.085 Y84.977 E0.026 F1530.0
G1 X73.281 Y84.781 E0.006 F1530.0
G1 X73.996 Y83.849 E0.026 F1530.0
G1 X74.134 Y83.609 E0.006 F1530.0
G1 X74.584 Y82.524 E0.026 F1530.0
G1 X74.656 Y82.256 E0.006 F1530.0
G1 X74.809 Y81.091 E0.026 F1530.0
G1 X74.809 Y80.815 E0.006 F1530.0
G1 X74.656 Y79.652 E0.025 F1530.0
G1 X74.584 Y79.384 E0.006 F1530.0
G1 X74.134 Y78.297 E0.026 F1530.0
G1 X73.995 Y78.057 E0.006 F1530.0
G1 X73.28 Y77.126 E0.025 F1530.0
G1 X73.085 Y76.931 E0.006 F1530.0
G1 X72.153 Y76.215 E0.026 F1530.0
G1 X71.912 Y76.075 E0.006 F1530.0
G1 X70.827 Y75.627 E0.025 F1530.0
G1 X70.562 Y75.556 E0.006 F1530.0
G1 X69.397 Y75.401 E0.026 F1530.0
G1 X69.117 Y75.401 E0.006 F1530.0
G1 X67.952 Y75.556 E0.026 F1530.0
G1 X67.687 Y75.627 E0.006 F1530.0
G1 X66.602 Y76.075 E0.025 F1530.0
G1 X66.361 Y76.215 E0.006 F1530.0
G1 X65.429 Y76.931 E0.026 F1530.0
G1 X65.234 Y77.126 E0.006 F1530.0
G1 X64.519 Y78.057 E0.025 F1530.0
G1 X64.38 Y78.297 E0.006 F1530.0
G1 X63.93 Y79.384 E0.026 F1530.0
G1 X63.858 Y79.652 E0.006 F1530.0
G1 X63.705 Y80.815 E0.025 F1530.0
G1 X63.705 Y81.091 E0.006 F1530.0
G1 X63.858 Y82.256 E0.026 F1530.0
G1 X63.93 Y82.524 E0.006 F1530.0
G1 X64.38 Y83.609 E0.026 F1530.0
G1 X64.518 Y83.849 E0.006 F1530.0
G1 X65.233 Y84.781 E0.026 F1530.0
G1 X65.429 Y84.977 E0.006 F1530.0
G1 X66.361 Y85.692 E0.026 F1530.0
G1 X66.601 Y85.83 E0.006 F1530.0
G1 X67.686 Y86.28 E0.026 F1530.0
G1 X67.954 Y86.352 E0.006 F1530.0
G1 X69.119 Y86.505 E0.026 F1530.0
G1 X69.395 Y86.505 E0.006 F1530.0
G1 X70.485 Y86.362 E0.024 F1530.0
G1 X70.364 Y86.412 E0.003 F1530.0
G1 X70.123 Y86.551 E0.006 F1530.0
G1 X69.191 Y87.266 E0.026 F1530.0
G1 X68.995 Y87.462 E0.006 F1530.0
G1 X68.28 Y88.394 E0.026 F1530.0
G1 X68.142 Y88.634 E0.006 F1530.0
G1 X67.693 Y89.719 E0.026 F1530.0
G1 X67.621 Y89.986 E0.006 F1530.0
G1 X67.467 Y91.151 E0.026 F1530.0
G1 X67.467 Y91.429 E0.006 F1530.0
G1 X67.621 Y92.595 E0.026 F1530.0
G1 X67.693 Y92.862 E0.006 F1530.0
; retract
G0 E-0.5 F306.0
G0 Z0.488 F5400.0
G0 X69.228 Y85.676 F5400.0
; unretract
G0 Z0.188 F5400.0
G0 E0.5 F306.0
G2 X70.508 Y85.508 I-2.974 J-27.617 E0.028 F1530.0
G1 X71.593 Y85.058 E0.026 F1530.0
G1 X71.644 Y85.029 E0.001 F1530.0
G1 X72.576 Y84.314 E0.026 F1530.0
G1 X72.618 Y84.272 E0.001 F1530.0
G1 X73.333 Y83.34 E0.026 F1530.0
G1 X73.362 Y83.289 E0.001 F1530.0
G1 X73.812 Y82.204 E0.026 F1530.0
G1 X73.827 Y82.147 E0.001 F1530.0
G1 X73.98 Y80.982 E0.026 F1530.0
G1 X73.98 Y80.924 E0.001 F1530.0
G1 X73.827 Y79.761 E0.025 F1530.0
G1 X73.812 Y79.704 E0.001 F1530.0
G1 X73.362 Y78.617 E0.026 F1530.0
G1 X73.332 Y78.566 E0.001 F1530.0
G1 X72.617 Y77.635 E0.025 F1530.0
G1 X72.576 Y77.594 E0.001 F1530.0
G1 X71.644 Y76.878 E0.026 F1530.0
G1 X71.593 Y76.848 E0.001 F1530.0
G1 X70.508 Y76.4 E0.025 F1530.0
G1 X70.452 Y76.385 E0.001 F1530.0
G1 X69.287 Y76.23 E0.026 F1530.0
G1 X69.227 Y76.23 E0.001 F1530.0
G1 X68.062 Y76.385 E0.026 F1530.0
G1 X68.006 Y76.4 E0.001 F1530.0
G1 X66.921 Y76.848 E0.025 F1530.0
G1 X66.87 Y76.878 E0.001 F1530.0
G1 X65.938 Y77.594 E0.026 F1530.0
G1 X65.897 Y77.635 E0.001 F1530.0
G1 X65.182 Y78.566 E0.025 F1530.0
G1 X65.152 Y78.617 E0.001 F1530.0
G1 X64.702 Y79.704 E0.026 F1530.0
G1 X64.687 Y79.761 E0.001 F1530.0
G1 X64.534 Y80.924 E0.025 F1530.0
G1 X64.534 Y80.982 E0.001 F1530.0
G1 X64.687 Y82.147 E0.026 F1530.0
G1 X64.702 Y82.204 E0.001 F1530.0
G1 X65.152 Y83.289 E0.026 F1530.0
G1 X65.181 Y83.34 E0.001 F1530.0
G1 X65.896 Y84.272 E0.026 F1530.0
G1 X65.938 Y84.314 E0.001 F1530.0
G1 X66.87 Y85.029 E0.026 F1530.0
G1 X66.921 Y85.058 E0.001 F1530.0
G1 X68.006 Y85.508 E0.026 F1530.0
G1 X68.063 Y85.523 E0.001 F1530.0
G1 X69.228 Y85.676 E0.026 F1530.0
G0 X69.173 Y86.091 Z0.188 F5400.0
G2 X70.668 Y85.894 I-0.923 J-12.779 E0.033 F1530.0
G1 X71.753 Y85.444 E0.026 F1530.0
G1 X71.898 Y85.36 E0.004 F1530.0
G1 X72.83 Y84.645 E0.026 F1530.0
G1 X72.949 Y84.526 E0.004 F1530.0
G1 X73.664 Y83.594 E0.026 F1530.0
G1 X73.748 Y83.449 E0.004 F1530.0
G1 X74.198 Y82.364 E0.026 F1530.0
G1 X74.242 Y82.202 E0.004 F1530.0
G1 X74.395 Y81.037 E0.026 F1530.0
G1 X74.395 Y80.869 E0.004 F1530.0
G1 X74.242 Y79.706 E0.025 F1530.0
G1 X74.198 Y79.544 E0.004 F1530.0
G1 X73.748 Y78.457 E0.026 F1530.0
G1 X73.664 Y78.311 E0.004 F1530.0
G1 X72.949 Y77.38 E0.025 F1530.0
G1 X72.831 Y77.262 E0.004 F1530.0
G1 X71.899 Y76.546 E0.026 F1530.0
G1 X71.752 Y76.462 E0.004 F1530.0
G1 X70.667 Y76.014 E0.025 F1530.0
G1 X70.507 Y75.971 E0.004 F1530.0
G1 X69.342 Y75.816 E0.026 F1530.0
G1 X69.172 Y75.816 E0.004 F1530.0
G1 X68.007 Y75.971 E0.026 F1530.0
G1 X67.847 Y76.014 E0.004 F1530.0
G1 X66.762 Y76.462 E0.025 F1530.0
G1 X66.615 Y76.546 E0.004 F1530.0
G1 X65.683 Y77.262 E0.026 F1530.0
G1 X65.565 Y77.38 E0.004 F1530.0
G1 X64.85 Y78.311 E0.025 F1530.0
G1 X64.766 Y78.457 E0.004 F1530.0
G1 X64.316 Y79.544 E0.026 F1530.0
G1 X64.272 Y79.706 E0.004 F1530.0
G1 X64.119 Y80.869 E0.025 F1530.0
G1 X64.119 Y81.037 E0.004 F1530.0
G1 X64.272 Y82.202 E0.026 F1530.0
G1 X64.316 Y82.364 E0.004 F1530.0
G1 X64.766 Y83.449 E0.026 F1530.0
G1 X64.85 Y83.594 E0.004 F1530.0
G1 X65.565 Y84.526 E0.026 F1530.0
G1 X65.684 Y84.645 E0.004 F1530.0
G1 X66.616 Y85.36 E0.026 F1530.0
G1 X66.761 Y85.444 E0.004 F1530.0
G1 X67.846 Y85.894 E0.026 F1530.0
G1 X68.008 Y85.938 E0.004 F1530.0
G1 X69.173 Y86.091 E0.026 F1530.0
G0 X69.061 Y86.919 Z0.188 F5400.0
G1 X48.546 Y98.763 E0.515 F1530.0
G1 X48.136 Y98.518 E0.01 F1530.0
G1 X68.47 Y86.778 E0.51 F1530.0
G1 X67.808 Y86.677 E0.015 F1530.0
G1 X47.861 Y98.194 E0.5 F1530.0
G1 X47.702 Y97.803 E0.009 F1530.0
G1 X67.284 Y86.498 E0.491 F1530.0
; retract
G0 E-0.5 F306.0
G0 Z0.488 F5400.0
G0 X49.515 Y93.862 F5400.0
; unretract
G0 Z0.188 F5400.0
G0 E0.5 F306.0
G1 X64.927 Y84.964 E0.387 F1530.0
G1 X65.23 Y85.271 E0.009 F1530.0
G1 X49.098 Y94.585 E0.405 F1530.0
G1 X48.68 Y95.309 E0.018 F1530.0
G1 X65.589 Y85.546 E0.424 F1530.0
G1 X65.948 Y85.822 E0.01 F1530.0
G1 X48.262 Y96.033 E0.444 F1530.0
G1 X47.855 Y96.75 E0.018 F1530.0
G1 X66.333 Y86.082 E0.463 F1530.0
G1 X66.798 Y86.296 E0.011 F1530.0
G1 X47.674 Y97.337 E0.48 F1530.0
; retract
G0 E-0.5 F306.0
G0 Z0.488 F5400.0
G0 X67.287 Y89.873 F5400.0
; unretract
G0 Z0.188 F5400.0
G0 E0.5 F306.0
G1 X51.712 Y98.865 E0.391 F1530.0
G1 X50.876 Y98.865 E0.018 F1530.0
G1 X67.495 Y89.271 E0.417 F1530.0
G1 X67.757 Y88.637 E0.015 F1530.0
G1 X50.041 Y98.865 E0.444 F1530.0
G1 X49.206 Y98.865 E0.018 F1530.0
G1 X68.224 Y87.885 E0.477 F1530.0
; retract
G0 E-0.5 F306.0
G0 Z0.488 F5400.0
G0 X74.009 Y97.088 F5400.0
; unretract
G0 Z0.188 F5400.0
G0 E0.5 F306.0
